!!!!SEGMENT: pl-cz--ii-184--001-005_neumann-wawrzyniec--vesperae-de-apostolis-in-c-domine-probasti-me.krn
!!!cenid: 17xx:1003
!!!COM: Neumann, Wawrzyniec
!!!COM-rismID: pe30107352
!!!CDT: ~1700-~1799
!!!CNT:
!!!OPR: Vesperae de Apostolis in C
!!!OTL: Domine probasti me
!!!OMV: 005
!!!PDT:
!!!AGN: Sacred; Vespers
!!!SMS-siglum: PL-CZ
!!!SMS-shelfmark: II-184
!!!SMS-shelfwork: 001-005 M
!!!SMS-variant:
!!!SMS-altvar:
!!!NIFC-rismSourceID: 300000912
!!!NIFC-islandoraID: pl-cz:32706
!!!URL-pdf-islandora: https://repozytorium.nifc.pl/islandora/object/pl-cz%3A32706/datastream/PDF/view
!!!URL-scan:
!!!ONB-nifc: UWAGA: części Vesperae: Dixit Dominus, Laudate pueri, Credidi, In convertendo, Domine probasti me, Magnificat
!!!AIN: 1 alto 1 bass 2 clrno 1 organ 1 soprn 1 tenor 2 violn
!!!key: F
**kern	**fba	**dynam	**kern	**dynam	**kern	**dynam	**kern	**text	**kern	**text	**kern	**text	**kern	**text	**kern	**kern
*part9	*part9	*part9	*part8	*part8	*part7	*part7	*part6	*part6	*part5	*part5	*part4	*part4	*part3	*part3	*part2	*part1
*staff9	*	*	*staff8	*	*staff7	*	*staff6	*staff6	*staff5	*staff5	*staff4	*staff4	*staff3	*staff3	*staff2	*staff1
*I"Organo	*	*	*I"Violino Secondo	*	*I"Violino Primo.	*	*I"Basso	*	*I"Tenore	*	*I"Alto	*	*I"Canto	*	*I"Clarino Secondo ad libitum.	*I"Clarino Primo ad libitum
*I'org	*	*	*I'vl II	*	*I'vl I	*	*I'B	*	*I'T	*	*I'A	*	*I'C	*	*I'clno II	*I'clno I
*ICklav	*	*	*ICstr	*	*ICstr	*	*ICvox	*	*ICvox	*	*ICvox	*	*ICvox	*	*ICbras	*ICbras
*Iorgan	*	*	*Ivioln	*	*Ivioln	*	*Ibass	*	*Itenor	*	*Ialto	*	*Isoprn	*	*Iclrno	*Iclrno
*clefF4	*	*	*clefG2	*	*clefG2	*	*clefF4	*	*clefC4	*	*clefC3	*	*clefC1	*	*clefG2	*clefG2
*F:	*	*	*F:	*	*F:	*	*F:	*	*F:	*	*F:	*	*F:	*	*F:	*F:
*k[b-]	*	*	*k[b-]	*	*k[b-]	*	*k[b-]	*	*k[b-]	*	*k[b-]	*	*k[b-]	*	*k[b-]	*k[b-]
*M3/4	*	*	*M3/4	*	*M3/4	*	*M3/4	*	*M3/4	*	*M3/4	*	*M3/4	*	*M3/4	*M3/4
=1	=1	=1	=1	=1	=1	=1	=1	=1	=1	=1	=1	=1	=1	=1	=1	=1
*2\right	*	*	*2\right	*	*2\right	*	*2\right	*	*	*	*2\right	*	*	*	*	*
!	!	!	!	!	!	!	!	!	!	!	!	!	!LO:TX:t=P:all\right:problem	!	!	!
!LO:TX:a:B:t=allo	!	!	!LO:TX:a:B:t=Allo	!	!LO:TX:a:B:t=Allo	!	!	!	!LO:TX:a:B:t=Allo&colon;	!	!LO:TX:a:t=1	!	!LO:TX:a:B:t=Allo&colon;	!	!LO:TX:a:t=tacet 	!LO:TX:a:t=tacet
!LO:TX:a:t=T&colon;	!	!	!	!	!	!	!	!	!	!	!	!	!	!	!LO:TX:t=P:problem=tacet (nie zapisany na karcie głosu)	!LO:TX:t=P:problem=tacet (nie zapisany na karcie głosu)
!	!	!	!	!LO:DY:t=f&colon;	!	!LO:DY:t=f&colon;	!	!	!	!	!	!	!	!	!	!
!	!	!	!LO:TX:t=P:problem= mixed beam	!	!	!	!	!	!	!	!	!	!	!	!	!
8F\L	.	.	8A/L	f	8.cc\L	f	8.F\	Do-	2.r	.	2.r	.	8.cc\	Do-	2.ryy	2.ryy
8F\	.	.	8A/	.	.	.	.	.	.	.	.	.	.	.	.	.
.	.	.	.	.	16a\K	.	16F\	-mi-	.	.	.	.	16a\	-mi-	.	.
8F\	.	.	8A/	.	8f\	.	8F\	-ne	.	.	.	.	8f/	-ne	.	.
8F\	8 6	.	8dd\	.	8ff\	.	8F\	pro-	.	.	.	.	8ff\	Pro-	.	.
8F\	7	.	8cc\	.	8ee\	.	8F\	-ba-	.	.	.	.	8ee\L	-ba-	.	.
8F\J	6_ 4_	.	8b-\J	.	8dd\J	.	8F\	-sti	.	.	.	.	8dd\J	-sti	.	.
=2	=2	=2	=2	=2	=2	=2	=2	=2	=2	=2	=2	=2	=2	=2	=2	=2
.	.	.	.	.	8qqdd/	.	.	.	.	.	.	.	8qqdd/	.	.	.
8F\L	.	.	8b-\L	.	4.cc\	.	8F\	me	2.r	.	8r	.	8cc\	me	2.ryy	2.ryy
8F\	5	.	8a\J	.	.	.	8F\	et	.	.	8f\	In-	8cc\	et	.	.
8F\	.	.	8a\L	.	.	.	8F\	co-	.	.	8f\	-tel-	8cc\	Co-	.	.
8F\	.	.	16cc\L	.	8aa\L	.	8F\	-gno-	.	.	8f\	-le-	8ff\	-gno-	.	.
.	.	.	16ff\JJ	.	.	.	.	.	.	.	.	.	.	.	.	.
8F\	.	.	8ee\L	.	8gg\	.	8F\	-vi-	.	.	8f\	-xi-	8ee\	-vi-	.	.
8F\J	.	.	8dd\J	.	8ff\J	.	8F\	-sti	.	.	8f\	-sti	8dd\	-sti	.	.
=3	=3	=3	=3	=3	=3	=3	=3	=3	=3	=3	=3	=3	=3	=3	=3	=3
8C/L	9:8 2|:6	.	8dd\L	.	8ff\L	.	8C/	me	8r	.	8f\	co-	8dd\	me.	2.ryy	2.ryy
!	!	!	!	!	!	!	!	!	!LO:TX:t=P:all\right:problem	!	!	!	!	!	!	!
8C/	.	.	8cc\J	.	16ee\L	.	8C/	tu	8c\	Et	16e\LL	-gi-	8cc\	tu	.	.
.	.	.	.	.	16ff\JJ	.	.	.	.	.	16f\JJ	.	.	.	.	.
8E/	.	.	16gg\LL	.	16gg\LL	.	8E\	co-	8c\	om-	8g\	-ta-	8cc\	Co-	.	.
.	.	.	16ff\	.	16ff\	.	.	.	.	.	.	.	.	.	.	.
8E/	6	.	16ee\	.	16ee\	.	8E\	-gno-	8c\	-nes	8g\	-ti-	8cc\	-gno-	.	.
.	.	.	16dd\JJ	.	16dd\JJ	.	.	.	.	.	.	.	.	.	.	.
8E/	5	.	8cc\L	.	8cc\L	.	8E\	-vi-	8c\	vi-	8g\	-o-	8cc\	-vi-	.	.
8E/J	.	.	8b-\J	.	8b-\J	.	8E\	-sti	8c\	-as	8g\	-nes	8b-\	-sti	.	.
!	!	!	!	!	!	!	!	!	!	!	!	!	!LO:LB:g=original	!	!	!
=4	=4	=4	=4	=4	=4	=4	=4	=4	=4	=4	=4	=4	=4	=4	=4	=4
!	!	!	!	!	!	!LO:DY:t=p&colon;	!	!	!	!	!	!	!	!	!	!
4F\	.	.	8a\L	.	8a\L	p	8F\	ses-	8c\	me-	8f\L	me-	8a\	Ses-	2.ryy	2.ryy
!	!	!	!	!	!	!	!	!	!	!	!	!	!	!	!	!
.	.	.	8b-\	.	8b-\	.	8F\	-si-	8c\	-as	8g\J	.	8b-\	-si-	.	.
!	!	!	!	!	!	!	!LO:LB:g=original	!	!	!	!	!	!	!	!	!
4F\	.	.	8cc\	.	8cc\	.	8F\	-o-	8c\	pr(ae)-	8a\	-as	8cc\	-o-	.	.
.	.	.	8cc\	.	8aa\	.	8F\	-nem	8c\	-vi-	8a\	de	8cc\	-nem	.	.
4F\	.	.	8b-\	.	8gg\	.	4F\	me-	4d\	-di-	8g\L	lon-	(8b-\L	me-	.	.
.	.	.	8a\J	.	8ff\J	.	.	.	.	.	8f\J	.	8a\J)	.	.	.
=5	=5	=5	=5	=5	=5	=5	=5	=5	=5	=5	=5	=5	=5	=5	=5	=5
!	!	!	!	!	!	!	!	!	!	!	!	!	!	!	!	!
8C/L	6 4	.	8a/L	.	8ff\L	.	4F\	-am	8c\	-sti	8f\	-ge	8a\	-am	2.ryy	2.ryy
!	!	!	!	!	!	!	!	!	!	!	!LO:LB:g=original	!	!	!	!	!
8C/	5 3	.	16g/L	.	16ee\L	.	.	.	16c\	qui-	16e\LL	se-	(16g\LL	Et	.	.
!	!	!	!	!	!	!	!	!	!	!	!	!	!	!	!	!
.	.	.	16cc/JJ	.	16ff\JJ	.	.	.	16c\	-a	16f\JJ	.	16a\JJ)	.	.	.
!	!	!	!	!	!	!	!	!	!LO:LB:g=original	!	!	!	!	!	!	!
8E/	.	.	8b-\L	.	16gg\LL	.	4r	.	8c\	non	16g\	-mi-	8b-\	re-	.	.
.	.	.	.	.	16ff\	.	.	.	.	.	16g\	.	.	.	.	.
8E/	.	.	8b-\	.	16ee\	.	.	.	8c\	est	8c\	-tam	8gg\	-sur-	.	.
.	.	.	.	.	16dd\JJ	.	.	.	.	.	.	.	.	.	.	.
8E/	.	.	8g\	.	8cc\L	.	4r	.	8c\	ser-	8cc\	.	8gg\	-re-	.	.
8E/J	.	.	8gg\J	.	8bb-\J	.	.	.	8c\	-mo	8b-\	me-	8gg\	-cti-	.	.
!	!	!	!LO:LB:g=original	!	!LO:LB:g=original	!	!	!	!	!	!	!	!	!	!	!
=6	=6	=6	=6	=6	=6	=6	=6	=6	=6	=6	=6	=6	=6	=6	=6	=6
4F\	9:8 2|:3	.	8gg\L	.	8bb-\L	.	2.r	.	4c\	in	8b-\	-am	8gg\	-o-	2.ryy	2.ryy
.	.	.	8ff\J	.	8aa\J	.	.	.	.	.	8a\	et	8ff\	-nem	.	.
4F\	.	.	8a/L	.	16aa\LL	.	.	.	4c\	Lin-	16a\	fu-	4.ff\	Me-	.	.
.	.	.	.	.	16gg\	.	.	.	.	.	16a\	-ni-	.	.	.	.
.	.	.	8a/	.	16ff\	.	.	.	.	.	8a\	-cu-	.	.	.	.
.	.	.	.	.	16ee\JJ	.	.	.	.	.	.	.	.	.	.	.
4F\	6:5	.	8a/	.	8dd\L	.	.	.	4d\	-gua	4a\	-lum	.	.	.	.
.	.	.	8a/J	.	8cc\J	.	.	.	.	.	.	.	8ee\	.	.	.
!LO:LB:g=original	!	!	!	!	!	!	!	!	!	!	!	!	!	!	!	!
=7	=7	=7	=7	=7	=7	=7	=7	=7	=7	=7	=7	=7	=7	=7	=7	=7
4G\	n4r	.	8d/	.	8cc\L	.	4G\	Ec-	4d\	me-	8g\	me-	4dd\	-am	2.ryy	2.ryy
.	.	.	4dd\	.	8bn\J	.	.	.	.	.	8g\	-um	.	.	.	.
4BBn/	6	.	.	.	16dd\LL	.	2BBn/	-ce	4d\	-a	8g\	in-	4r	.	.	.
.	.	.	.	.	16cc\	.	.	.	.	.	.	.	.	.	.	.
.	.	.	4dd\	.	16b\	.	.	.	.	.	8g\	-vest-	.	.	.	.
.	.	.	.	.	16a\JJ	.	.	.	.	.	.	.	.	.	.	.
4BB/	5	.	.	.	8g/L	.	.	.	4r	.	8g\L	-ti-	4r	.	.	.
.	.	.	8dd\	.	8f/J	.	.	.	.	.	8f\J	-gas-	.	.	.	.
=8	=8	=8	=8	=8	=8	=8	=8	=8	=8	=8	=8	=8	=8	=8	=8	=8
.	.	.	.	.	.	.	.	.	.	.	8qqf/	.	.	.	.	.
4C/	9:8 4:3	.	8dd\L	.	8f/L	.	8C/	Do-	2.r	.	4e\	-ti	8dd\	Ec-	2.ryy	2.ryy
.	.	.	8cc\	.	8e/J	.	8C/	-mi-	.	.	.	.	8cc\	-ce	.	.
4C/	.	.	8ee\	.	16gg\LL	.	4C/	-ne	.	.	4r	.	8ee\	Do-	.	.
.	.	.	.	.	16ee\	.	.	.	.	.	.	.	.	.	.	.
!	!	!	!	!	!	!	!	!	!	!	!	!	!	!	!	!
.	.	.	8ee\	.	16dd\	.	.	.	.	.	.	.	8ee\	-mi-	.	.
.	.	.	.	.	16cc\JJ	.	.	.	.	.	.	.	.	.	.	.
!	!	!	!	!	!	!	!	!	!	!	!	!	!LO:LB:g=original	!	!	!
4C/	6:4	.	8ff\	.	4aa\	.	4C/	tu	.	.	4r	.	8ff\	-ne	.	.
.	.	.	8ff\J	.	.	.	.	.	.	.	.	.	8ff\	tu	.	.
!	!	!	!	!	!	!	!	!	!	!	!LO:LB:g=original	!	!	!	!	!
=9	=9	=9	=9	=9	=9	=9	=9	=9	=9	=9	=9	=9	=9	=9	=9	=9
8BBn/L	7	.	(4ff\	.	4aa\	.	8BBn/	co-	4d\	Mi-	4a\	Mi-	8ff\	Co-	2.ryy	2.ryy
8BB/	.	.	.	.	.	.	8BB/	-gno-	.	.	.	.	8ff\	-gno-	.	.
8BB/	6 4	.	4ee\)	.	4gg\	.	8BB/	-vi-	8G/	-ra-	8g\	-ra-	8ee\	-vi-	.	.
8BB/	.	.	.	.	.	.	8BB/	-sti	16G/	-bi-	16g\	-bi-	8ee\	-sti	.	.
.	.	.	.	.	.	.	.	.	16G/	-lis	16g\	-lis	.	.	.	.
8BB/	5	.	4dd\	.	4ff\	.	8BB/	om-	8G/	fac-	8f\	fac-	8dd\	om-	.	.
*	*	*	*	*	*	*	*	*	*custos:c	*	*	*	*	*	*	*
8BB/J	.	.	.	.	.	.	16BB/	-ni-	8G/	-ta	8f\	-ta	16dd\	-ni-	.	.
.	.	.	.	.	.	.	16BB/	-a	.	.	.	.	16dd\	-a	.	.
!	!	!	!	!	!	!	!	!	!LO:LB:g=original	!	!	!	!	!	!	!
=10	=10	=10	=10	=10	=10	=10	=10	=10	=10	=10	=10	=10	=10	=10	=10	=10
4C\	.	.	8cc\L	.	8ee\L	.	8r	.	8c\	est	8c\	est	8ee\L	no-	2.ryy	2.ryy
.	.	.	8cc\	.	16dd\L	.	8C/	no-	16B#X\LL	Sci-	8g\	Scien-	16dd\L	.	.	.
.	.	.	.	.	16ee\JJ	.	.	.	16c\JJ	.	.	.	16ee\JJ	.	.	.
4F\	5:6	.	8a\	.	8ff\L	.	8F\	-vis-	8c\L	-en-	8a\	.	8ff\	-vis-	.	.
!	!	!	!	!	!	!	!	!	!	!	!	!	!	!	!	!
.	.	.	8f\	.	8dd\	.	8F\	-si-	8f\J	.	8a\	-ti-	8dd\	-si-	.	.
!	!	!	!	!	!	!	!LO:LB:g=original	!	!	!	!	!	!	!	!	!
4G\	n4r	.	8e\	.	8cc\	.	8G\	-ma	8e\	-tia	4g\	-a	8cc\	-ma	.	.
.	.	.	8d\J	.	8bn\J	.	8G\	et	8d\	.	.	.	8bn\	et	.	.
=11	=11	=11	=11	=11	=11	=11	=11	=11	=11	=11	=11	=11	=11	=11	=11	=11
!	!	!	!	!	!	!	!	!	!	!	!	!	!	!	!	!
8C/L	.	.	8e/L	.	8cc\L	.	8C/	an-	(8e\L	tu-	4g\	tu-	8cc\	an-	2.ryy	2.ryy
8G\J	n	.	8d/J	.	8bn\J	.	8G\	-ti-	8d\J	.	.	.	8b-\	-ti-	.	.
4C/	.	.	4e/	.	4cc\	.	4C/	-qua	4e\)	-a	4g\	-a	4cc\	-qua	.	.
!	!	!	!	!	!	!	!	!	!	!	!	!	!	!	!	!
4r	.	.	8c/L	.	4ee-X\	.	4r	.	4c\	ex	4a\	ex	8ee-X\	tu	.	.
.	.	.	8cc\J	.	.	.	.	.	.	.	.	.	8ee-\	for-	.	.
!	!	!	!	!	!LO:LB:g=original	!	!	!	!	!	!	!	!	!	!	!
=12	=12	=12	=12	=12	=12	=12	=12	=12	=12	=12	=12	=12	=12	=12	=12	=12
!	!	!	!	!	!	!	!	!	!	!	!	!	!LO:SIC:s=8ee-	!	!	!
8F\L	-7	.	8cc\	.	16ee-X\LL	.	2.r	.	4c\	me	2a\	me	8.ee\	-mas-	2.ryy	2.ryy
.	.	.	.	.	16cc\	.	.	.	.	.	.	.	.	.	.	.
8F\	.	.	4cc\	.	16a\	.	.	.	.	.	.	.	.	.	.	.
!	!	!	!	!	!	!	!	!	!	!	!	!	!LO:SIC:s=16ee-	!	!	!
!	!	!	!	!	!	!	!	!	!	!	!	!	!	!	!	!
.	.	.	.	.	16f\JJ	.	.	.	.	.	.	.	16ee\	-ti	.	.
!	!	!	!	!	!	!	!	!	!	!	!	!	!LO:LB:g=original	!	!	!
!	!	!	!	!	!	!	!	!	!	!	!	!	!LO:SIC:s=8ee-	!	!	!
8F\	.	.	.	.	16ee-\LL	.	.	.	4r	.	.	.	8ee\	me	.	.
.	.	.	.	.	16cc\	.	.	.	.	.	.	.	.	.	.	.
!	!	!	!	!	!	!	!	!	!	!	!	!	!LO:SIC:s=8ee-	!	!	!
8F\	.	.	8cc\	.	16a\	.	.	.	.	.	.	.	8ee\	et	.	.
.	.	.	.	.	16f\JJ	.	.	.	.	.	.	.	.	.	.	.
!	!	!	!	!	!	!	!	!	!	!	!	!	!LO:SIC:s=8ee-	!	!	!
8F\	.	.	8ee-X\L	.	8ccc\L	.	.	.	8c\	Con-	8a\	Con-	8ee\	po-	.	.
!	!	!	!	!	!	!	!	!	!	!	!	!	!LO:SIC:s=8ee-	!	!	!
8F\J	.	.	8cc\J	.	8ee-\J	.	.	.	8c\	-for-	8a\	-for-	8ee\	-su-	.	.
!	!	!	!LO:LB:g=original	!	!	!	!	!	!	!	!	!	!	!	!	!
=13	=13	=13	=13	=13	=13	=13	=13	=13	=13	=13	=13	=13	=13	=13	=13	=13
4B-\	9:8 4:3	.	8cc\L	.	8ee\L	.	2.r	.	8c\	-ta-	8f\	-ta-	8ee-X\L	-is-	2.ryy	2.ryy
.	.	.	8b-\J	.	8dd\J	.	.	.	8B-\	-ta	8f\	-ta	8dd\J	-ti	.	.
4BB-/	.	.	4f/	.	4dd\	.	.	.	4d\	est	4d\	est	8ff\	Su-	.	.
.	.	.	.	.	.	.	.	.	.	.	.	.	8ff\	-per	.	.
!	!	!	!	!	!	!	!	!	!	!	!	!	!	!	!	!
4r	.	.	8d/L	.	4ff\	.	.	.	4Bn\	(et)	4f\	et	4ff\	Me	.	.
.	.	.	8dd\J	.	.	.	.	.	.	.	.	.	.	.	.	.
!LO:LB:g=original	!	!	!	!	!	!	!	!	!	!	!LO:LB:g=original	!	!	!	!	!
=14	=14	=14	=14	=14	=14	=14	=14	=14	=14	=14	=14	=14	=14	=14	=14	=14
!	!	!	!	!	!	!	!	!	!	!	!	!	!	!	!	!
8G\L	n	.	8dd\	.	16ff\LL	.	2.Bn\	non	2.d\	non	2.g\	non	8ff\L	Ma-	2.ryy	2.ryy
.	.	.	.	.	16dd\	.	.	.	.	.	.	.	.	.	.	.
8A\	.	.	4dd\	.	16bn\	.	.	.	.	.	.	.	8ff\J	-num	.	.
.	.	.	.	.	16g\JJ	.	.	.	.	.	.	.	.	.	.	.
8Bn\	.	.	.	.	8ddd\L	.	.	.	.	.	.	.	2ff\	tu-	.	.
8G\	.	.	8dd\	.	8ff\	.	.	.	.	.	.	.	.	.	.	.
8A\	.	.	8ff\L	.	8ddd\	.	.	.	.	.	.	.	.	.	.	.
8B\J	.	.	8dd\J	.	8ff\J	.	.	.	.	.	.	.	.	.	.	.
!	!	!	!	!	!	!	!	!	!LO:LB:g=original	!	!	!	!	!	!	!
=15	=15	=15	=15	=15	=15	=15	=15	=15	=15	=15	=15	=15	=15	=15	=15	=15
.	.	.	8qqdd/	.	8qqff/	.	.	.	.	.	.	.	8qqff/	.	.	.
4c\	4:3	.	4cc\	.	4ee\	.	4c\	non	4c\	non	4g\	non	4ee\	-am	2.ryy	2.ryy
4r	.	.	16e\LL	.	16cc\LL	.	2r	.	4r	.	4r	.	4r	.	.	.
.	.	.	16cc\	.	16ee\	.	.	.	.	.	.	.	.	.	.	.
.	.	.	16ee\	.	16gg\	.	.	.	.	.	.	.	.	.	.	.
.	.	.	16gg\JJ	.	16bb-\JJ	.	.	.	.	.	.	.	.	.	.	.
4r	.	.	16e\LL	.	16cc\LL	.	.	.	4r	.	4r	.	4r	.	.	.
.	.	.	16cc\	.	16ee\	.	.	.	.	.	.	.	.	.	.	.
.	.	.	16ee\	.	16gg\	.	.	.	.	.	.	.	.	.	.	.
.	.	.	16gg\JJ	.	16bb-\JJ	.	.	.	.	.	.	.	.	.	.	.
=16	=16	=16	=16	=16	=16	=16	=16	=16	=16	=16	=16	=16	=16	=16	=16	=16
.	.	.	8qqgg/	.	8qqbb-/	.	.	.	.	.	.	.	.	.	.	.
*	*	*	*	*	*	*	*	*	*	*ij	*	*	*	*	*	*
4F\	9:8 4:3	.	4ff\	.	4aa\	.	4F\	non	4B-\	non	4f\	non	4cc\	Non	2.ryy	2.ryy
4r	.	.	8e/	.	16g/LL	.	2r	.	4r	.	4r	.	4r	.	.	.
.	.	.	.	.	16e/	.	.	.	.	.	.	.	.	.	.	.
.	.	.	4e/	.	16c/	.	.	.	.	.	.	.	.	.	.	.
.	.	.	.	.	16B-/JJ	.	.	.	.	.	.	.	.	.	.	.
4r	.	.	.	.	16g/LL	.	.	.	4r	.	4r	.	4r	.	.	.
.	.	.	.	.	16e/	.	.	.	.	.	.	.	.	.	.	.
.	.	.	8e/	.	16c/	.	.	.	.	.	.	.	.	.	.	.
.	.	.	.	.	16B-/JJ	.	.	.	.	.	.	.	.	.	.	.
!	!	!	!	!	!LO:LB:g=original	!	!	!	!	!	!	!	!	!	!	!
=17	=17	=17	=17	=17	=17	=17	=17	=17	=17	=17	=17	=17	=17	=17	=17	=17
!	!	!	!	!	!LO:TX:t=P:problem=mixed beam	!	!	!	!	!	!	!	!	!	!	!
.	.	.	.	.	8qqB-/	.	.	.	.	.	.	.	.	.	.	.
8F\L	.	.	8g/L	.	8A\L	.	4F\	non	4A\	non	4f\	non	4cc\	Non	2.ryy	2.ryy
*	*	*	*	*	*	*	*	*	*	*Xij	*	*	*	*	*	*
8AA\J	.	.	8cc/J	.	8cc/J	.	.	.	.	.	.	.	.	.	.	.
4BB-/	.	.	4dd\	.	4dd\	.	8.AA/	po-	8.d\	po-	8.f\	po-	8.dd\	po-	.	.
.	.	.	.	.	.	.	16AA/	-te-	16d\	-te-	16f\	-te-	16dd\	-te-	.	.
4BB-/	.	.	16bb-\LL	.	16bb-\LL	.	4BB-/	-ro	4f\	-ro	8f\	-ro	8dd\	-ro	.	.
.	.	.	16aa\	.	16aa\	.	.	.	.	.	.	.	.	.	.	.
.	.	.	16gg\	.	16gg\	.	.	.	.	.	8f\	ad	8dd\	ad	.	.
.	.	.	16ff\JJ	.	16ff\JJ	.	.	.	.	.	.	.	.	.	.	.
=18	=18	=18	=18	=18	=18	=18	=18	=18	=18	=18	=18	=18	=18	=18	=18	=18
8BB-/L	4 2	.	16ee\LL	.	16ee\LL	.	8BB-/L	ad	4c\	ad	(8g\L	e-	8ee\L	e-	2.ryy	2.ryy
.	.	.	16cc\J	.	16cc\J	.	.	.	.	.	.	.	.	.	.	.
16AA/L	6	.	8ff\J	.	8ff\J	.	16AA/L	.	.	.	8a\J)	.	8ff\J	.	.	.
16BB-/JJ	.	.	.	.	.	.	16BB-/JJ	.	.	.	.	.	.	.	.	.
4C/	6 4	.	8a\L	.	8a\L	.	2C/	e-	2c\	e-	(4a\	.	4ff\	.	.	.
.	.	.	8ff\	.	8ff\	.	.	.	.	.	.	.	.	.	.	.
4C/	5 3	.	8g\	.	8g\	.	.	.	.	.	4g\)	.	4ee\	.	.	.
.	.	.	8ee\J	.	8ee\J	.	.	.	.	.	.	.	.	.	.	.
!	!	!	!LO:LB:g=original	!	!	!	!	!	!	!	!	!	!LO:LB:g=original	!	!	!
=19	=19	=19	=19	=19	=19	=19	=19	=19	=19	=19	=19	=19	=19	=19	=19	=19
!	!	!LO:DY:a:t=f&colon;	!	!	!	!	!	!	!	!	!	!	!	!	!	!
4FF/	.	f	4a/	.	4ff\	.	4F\	-am	4c\	-am	4a\	-am	4ff\	-am	2.ryy	2.ryy
8r	.	.	4b-/	.	4d/	.	2r	.	2r	.	4r	.	4r	.	.	.
4E\	6 7:4	.	.	.	.	.	.	.	.	.	.	.	.	.	.	.
.	.	.	8a/L	.	8c/L	.	.	.	.	.	4r	.	4r	.	.	.
8E\	5 3	.	8g/J	.	8B-/J	.	.	.	.	.	.	.	.	.	.	.
!	!	!	!	!	!	!	!LO:LB:g=original	!	!	!	!	!	!	!	!	!
=20	=20	=20	=20	=20	=20	=20	=20	=20	=20	=20	=20	=20	=20	=20	=20	=20
!	!	!	!	!	!	!	!LO:TX:a:t=59.	!	!	!	!LO:TX:a:t=56	!	!LO:TX:a:t=56	!	!	!
4F\	.	.	8a/L	.	16A/LL	.	2.r	.	2.r	.	2.r	.	2.r	.	2.ryy	2.ryy
.	.	.	.	.	16c/	.	.	.	.	.	.	.	.	.	.	.
.	.	.	8b-/J	.	16f/	.	.	.	.	.	.	.	.	.	.	.
.	.	.	.	.	16d/JJ	.	.	.	.	.	.	.	.	.	.	.
8r	.	.	4b-/	.	4d/	.	.	.	.	.	.	.	.	.	.	.
4E\	6 4	.	.	.	.	.	.	.	.	.	.	.	.	.	.	.
.	.	.	8a/L	.	8c/L	.	.	.	.	.	.	.	.	.	.	.
8E\	.	.	8g/J	.	8B-/J	.	.	.	.	.	.	.	.	.	.	.
=21	=21	=21	=21	=21	=21	=21	=21	=21	=21	=21	=21	=21	=21	=21	=21	=21
!	!	!	!	!	!LO:TX:t=P:problem=mixed beam	!	!	!	!	!	!	!	!	!	!	!
!	!	!LO:DY:b:t=p&colon;	!	!	!	!	!	!	!	!	!	!	!	!	!	!
!	!	!	!	!	!	!LO:DY:t=p&colon;	!	!	!	!	!	!	!	!	!	!
8F\L	.	p	8f/L	.	8A/L	p	2.r	.	4c\	quo	2.r	.	2.r	.	2.ryy	2.ryy
!	!	!	!	!	!	!	!	!	!	!	!	!	!	!	!	!
!	!	!	!	!LO:DY:b:	!	!	!	!	!	!	!	!	!	!	!	!
8F\	.	.	8a/	p	8cc\J	.	.	.	.	.	.	.	.	.	.	.
8F\	.	.	8a/	.	4cc\	.	.	.	8r	.	.	.	.	.	.	.
8F\	.	.	8a/	.	.	.	.	.	8c\	quo	.	.	.	.	.	.
8F\	.	.	8c/	.	16b-/LL	.	.	.	8A/	i-	.	.	.	.	.	.
.	.	.	.	.	16a/	.	.	.	.	.	.	.	.	.	.	.
8F\J	.	.	8c/J	.	16g/	.	.	.	16F/	-bo	.	.	.	.	.	.
.	.	.	.	.	16f/JJ	.	.	.	16F/	a	.	.	.	.	.	.
!LO:LB:g=original	!	!	!	!	!	!	!	!	!LO:LB:g=original	!	!	!	!	!	!	!
=22	=22	=22	=22	=22	=22	=22	=22	=22	=22	=22	=22	=22	=22	=22	=22	=22
8F\L	6 4	.	8dd\L	.	8ff\L	.	2.r	.	4.f\	Spi-	2.r	.	2.r	.	2.ryy	2.ryy
8F\	.	.	8dd\	.	8ff\	.	.	.	.	.	.	.	.	.	.	.
8F\	.	.	8cc\	.	8dd\	.	.	.	.	.	.	.	.	.	.	.
8F\	5	.	8cc\	.	8dd\	.	.	.	8e\	-ri-	.	.	.	.	.	.
8F\	6 4	.	8b-\	.	8cc\	.	.	.	4d\	-tu	.	.	.	.	.	.
8F\J	.	.	8b-\J	.	8cc\J	.	.	.	.	.	.	.	.	.	.	.
=23	=23	=23	=23	=23	=23	=23	=23	=23	=23	=23	=23	=23	=23	=23	=23	=23
8F\L	.	.	8b-\L	.	8dd\L	.	2.r	.	8d\	tu-	2.r	.	2.r	.	2.ryy	2.ryy
8F\	.	.	8b-\	.	8dd\	.	.	.	8c\	-o	.	.	.	.	.	.
8F\	5	.	8a\	.	8cc\	.	.	.	8r	.	.	.	.	.	.	.
8F\	.	.	8a\	.	8cc\	.	.	.	8c\	(et)	.	.	.	.	.	.
8F\	.	.	8a\	.	8cc\	.	.	.	8A/	quo	.	.	.	.	.	.
8F\J	.	.	8a\J	.	8cc\J	.	.	.	8F/	a	.	.	.	.	.	.
!	!	!	!	!	!LO:LB:g=original	!	!	!	!	!	!	!	!	!	!	!
=24	=24	=24	=24	=24	=24	=24	=24	=24	=24	=24	=24	=24	=24	=24	=24	=24
8BB-/L	6	.	8g/L	.	8dd\L	.	2.r	.	8d\	fa-	2.r	.	2.r	.	2.ryy	2.ryy
8BB-/	.	.	8g/	.	8dd\	.	.	.	16B-\	-ci-	.	.	.	.	.	.
.	.	.	.	.	.	.	.	.	16A\	-e	.	.	.	.	.	.
8BB-/	.	.	8g/	.	8dd\	.	.	.	4G/	tu-	.	.	.	.	.	.
8BB-/	.	.	8g/	.	8dd\	.	.	.	.	.	.	.	.	.	.	.
8BBn/	.	.	8f/	.	8dd\	.	.	.	4F/	-a	.	.	.	.	.	.
8BB/J	.	.	8f/J	.	8dd\J	.	.	.	.	.	.	.	.	.	.	.
=25	=25	=25	=25	=25	=25	=25	=25	=25	=25	=25	=25	=25	=25	=25	=25	=25
4C/	.	.	8e/L	.	4dd\	.	2.r	.	16E/LL	fu-	2.r	.	2.r	.	2.ryy	2.ryy
.	.	.	.	.	.	.	.	.	16G/JJ	.	.	.	.	.	.	.
.	.	.	8g/	.	.	.	.	.	16A\LL	-giam	.	.	.	.	.	.
.	.	.	.	.	.	.	.	.	16Bn\JJ	.	.	.	.	.	.	.
8r	.	.	8g/	.	8cc\L	.	.	.	4c\	.	.	.	.	.	.	.
8C/L	.	.	8g/	.	8ee\	.	.	.	.	.	.	.	.	.	.	.
8C/	.	.	8g/	.	8ee\	.	.	.	8G/	Si	.	.	.	.	.	.
*	*	*	*	*	*	*	*	*	*custos:E	*	*	*	*	*	*	*
8C/J	.	.	8g/J	.	8ee\J	.	.	.	8G/	as-	.	.	.	.	.	.
!	!	!	!	!	!	!	!	!	!LO:LB:g=original	!	!	!	!	!	!	!
=26	=26	=26	=26	=26	=26	=26	=26	=26	=26	=26	=26	=26	=26	=26	=26	=26
!	!	!	!	!	!	!	!	!	!	!	!	!	!	!	!	!
!	!	!	!	!	!	!	!	!	!	!	!	!	!	!	!	!
.	.	.	8qqg/	.	.	.	.	.	.	.	.	.	.	.	.	.
!	!	!	!LO:LB:g=original	!	!	!	!	!	!	!	!	!	!	!	!	!
2.C/	.	.	2.ee\	.	2.gg\	.	2.r	.	16E/LL	-cen-	2.r	.	2.r	.	2.ryy	2.ryy
.	.	.	.	.	.	.	.	.	16C/	.	.	.	.	.	.	.
.	.	.	.	.	.	.	.	.	16D/	.	.	.	.	.	.	.
.	.	.	.	.	.	.	.	.	16E/JJ	.	.	.	.	.	.	.
.	.	.	.	.	.	.	.	.	16F/LL	.	.	.	.	.	.	.
.	.	.	.	.	.	.	.	.	16G/	.	.	.	.	.	.	.
.	.	.	.	.	.	.	.	.	16A/	.	.	.	.	.	.	.
.	.	.	.	.	.	.	.	.	16Bn/JJ	.	.	.	.	.	.	.
.	.	.	.	.	.	.	.	.	16c\LL	.	.	.	.	.	.	.
.	.	.	.	.	.	.	.	.	16d\	.	.	.	.	.	.	.
.	.	.	.	.	.	.	.	.	16e\	.	.	.	.	.	.	.
.	.	.	.	.	.	.	.	.	16f\JJ	.	.	.	.	.	.	.
=27	=27	=27	=27	=27	=27	=27	=27	=27	=27	=27	=27	=27	=27	=27	=27	=27
4C/	.	.	4b-\	.	4ee\	.	2.r	.	16g\LL	.	2.r	.	2.r	.	2.ryy	2.ryy
.	.	.	.	.	.	.	.	.	16f\	.	.	.	.	.	.	.
.	.	.	.	.	.	.	.	.	16e\	.	.	.	.	.	.	.
.	.	.	.	.	.	.	.	.	16f\JJ	.	.	.	.	.	.	.
16E\LL	.	.	8b-\L	.	16gg\LL	.	.	.	8g\	-de-	.	.	.	.	.	.
16D\	.	.	.	.	16ff\	.	.	.	.	.	.	.	.	.	.	.
16C\	.	.	8b-\	.	16ee\	.	.	.	8B-\	-ro	.	.	.	.	.	.
16D\JJ	.	.	.	.	16ff\JJ	.	.	.	.	.	.	.	.	.	.	.
8E\L	.	.	8b-\	.	8gg\L	.	.	.	4B-\	in	.	.	.	.	.	.
8C\J	.	.	8b-\J	.	8gg\J	.	.	.	.	.	.	.	.	.	.	.
=28	=28	=28	=28	=28	=28	=28	=28	=28	=28	=28	=28	=28	=28	=28	=28	=28
!	!	!	!	!	!	!	!	!	!	!	!	!	!	!	!	!
4F\	.	.	8cc\L	.	8ff\L	.	2.r	.	8A\L	c(ae)-	2.r	.	2.r	.	2.ryy	2.ryy
.	.	.	8c/	.	8a\	.	.	.	8c\J	.	.	.	.	.	.	.
4F\	5	.	8c/	.	8a\	.	.	.	4f\	-lum	.	.	.	.	.	.
.	.	.	8c/	.	8a\	.	.	.	.	.	.	.	.	.	.	.
4F\	6 2|	.	8c/	.	8a\	.	.	.	8c\L	tu	.	.	.	.	.	.
.	.	.	8d/J	.	8b-\J	.	.	.	8d\J	.	.	.	.	.	.	.
!LO:LB:g=original	!	!	!	!	!	!	!	!	!	!	!	!	!	!	!	!
=29	=29	=29	=29	=29	=29	=29	=29	=29	=29	=29	=29	=29	=29	=29	=29	=29
8E\L	6_ 4_	.	8cc\L	.	8a\L	.	2.r	.	2c\	il-	2.r	.	2.r	.	2.ryy	2.ryy
8E\	.	.	8a\	.	8cc\	.	.	.	.	.	.	.	.	.	.	.
8E\	.	.	8cc\	.	8aa\	.	.	.	.	.	.	.	.	.	.	.
8E\	.	.	8a\	.	8cc\	.	.	.	.	.	.	.	.	.	.	.
8E\	.	.	8g\	.	8b-\	.	.	.	4B-\	-lic	.	.	.	.	.	.
8E\J	5	.	8b-\J	.	8gg\J	.	.	.	.	.	.	.	.	.	.	.
!	!	!	!	!	!	!	!	!	!LO:LB:g=original	!	!	!	!	!	!	!
=30	=30	=30	=30	=30	=30	=30	=30	=30	=30	=30	=30	=30	=30	=30	=30	=30
8F\L	.	.	8f/L	.	16a/LL	.	2.r	.	4A/	es	2.r	.	2.r	.	2.ryy	2.ryy
.	.	.	.	.	16cc/	.	.	.	.	.	.	.	.	.	.	.
8F\	.	.	16c/L	.	16f/	.	.	.	.	.	.	.	.	.	.	.
.	.	.	16f/JJ	.	16a/JJ	.	.	.	.	.	.	.	.	.	.	.
8F\	.	.	16a\LL	.	16cc\LL	.	.	.	8r	.	.	.	.	.	.	.
.	.	.	16cc\	.	16ff\	.	.	.	.	.	.	.	.	.	.	.
8F\	.	.	16f\	.	16a\	.	.	.	8f\	Si	.	.	.	.	.	.
.	.	.	16a\JJ	.	16cc\JJ	.	.	.	.	.	.	.	.	.	.	.
8D\	.	.	8a\L	.	16ff\LL	.	.	.	8f\	des-	.	.	.	.	.	.
.	.	.	.	.	16aa\	.	.	.	.	.	.	.	.	.	.	.
8D\J	.	.	8f\J	.	16a\	.	.	.	8f\	-cen-	.	.	.	.	.	.
.	.	.	.	.	16dd\JJ	.	.	.	.	.	.	.	.	.	.	.
!	!	!	!	!	!LO:LB:g=original	!	!	!	!	!	!	!	!	!	!	!
=31	=31	=31	=31	=31	=31	=31	=31	=31	=31	=31	=31	=31	=31	=31	=31	=31
2.BBn/	.	.	2.f/	.	2.dd\	.	2.r	.	16f\LL	-de-	2.r	.	2.r	.	2.ryy	2.ryy
.	.	.	.	.	.	.	.	.	16g\	.	.	.	.	.	.	.
.	.	.	.	.	.	.	.	.	16f\	.	.	.	.	.	.	.
.	.	.	.	.	.	.	.	.	16e\JJ	.	.	.	.	.	.	.
.	.	.	.	.	.	.	.	.	16d\LL	.	.	.	.	.	.	.
.	.	.	.	.	.	.	.	.	16c\	.	.	.	.	.	.	.
.	.	.	.	.	.	.	.	.	16Bn\	.	.	.	.	.	.	.
.	.	.	.	.	.	.	.	.	16A\JJ	.	.	.	.	.	.	.
.	.	.	.	.	.	.	.	.	16G/LL	.	.	.	.	.	.	.
.	.	.	.	.	.	.	.	.	16F/	.	.	.	.	.	.	.
.	.	.	.	.	.	.	.	.	16E/	.	.	.	.	.	.	.
.	.	.	.	.	.	.	.	.	16D/JJ	.	.	.	.	.	.	.
=32	=32	=32	=32	=32	=32	=32	=32	=32	=32	=32	=32	=32	=32	=32	=32	=32
8C/L	.	.	8r	.	8ee\L	.	2.r	.	8C/L	.	2.r	.	2.r	.	2.ryy	2.ryy
!	!	!	!	!	!	!	!	!	!	!	!	!	!	!	!	!
8GG/	n	.	8g/L	.	24dd\L	.	.	.	8BBn/J	.	.	.	.	.	.	.
.	.	.	.	.	24ee\	.	.	.	.	.	.	.	.	.	.	.
.	.	.	.	.	24ff\JJ	.	.	.	.	.	.	.	.	.	.	.
8CC/	.	.	8g/	.	8ee\L	.	.	.	4C/	-ro	.	.	.	.	.	.
8EE/	.	.	8g/	.	8cc\	.	.	.	.	.	.	.	.	.	.	.
8FF/	.	.	8f/	.	8a\	.	.	.	8F/L	in-	.	.	.	.	.	.
8FF/J	.	.	8e/J	.	8bn\J	.	.	.	8D/J	.	.	.	.	.	.	.
=33	=33	=33	=33	=33	=33	=33	=33	=33	=33	=33	=33	=33	=33	=33	=33	=33
8GG/L	.	.	8e/L	.	8cc\L	.	2.r	.	8C/L	-fer-	2.r	.	2.r	.	2.ryy	2.ryy
8GG/	n4r	.	16f/L	.	24dd\L	.	.	.	8BBn/J	.	.	.	.	.	.	.
.	.	.	.	.	24ee\	.	.	.	.	.	.	.	.	.	.	.
.	.	.	16d/JJ	.	.	.	.	.	.	.	.	.	.	.	.	.
.	.	.	.	.	24ff\JJ	.	.	.	.	.	.	.	.	.	.	.
!	!	!	!LO:TX:t=P:mixedbeam:problem	!	!	!	!	!	!	!	!	!	!	!	!	!
8CC/	.	.	8c/L	.	8ee\L	.	.	.	4C/	-num	.	.	.	.	.	.
8CC/	.	.	8ee\	.	8gg\	.	.	.	.	.	.	.	.	.	.	.
8C/	.	.	8cc\	.	8ee\	.	.	.	4r	.	.	.	.	.	.	.
8C/J	.	.	8g\J	.	8cc\J	.	.	.	.	.	.	.	.	.	.	.
!	!	!	!LO:LB:g=original	!	!	!	!	!	!LO:LB:g=original	!	!	!	!	!	!	!
=34	=34	=34	=34	=34	=34	=34	=34	=34	=34	=34	=34	=34	=34	=34	=34	=34
8BBn/L	6	.	8r	.	16dd\LL	.	2.r	.	4.G/	a-	2.r	.	2.r	.	2.ryy	2.ryy
.	.	.	.	.	16g\	.	.	.	.	.	.	.	.	.	.	.
8BB/	.	.	8dd\	.	16dd\	.	.	.	.	.	.	.	.	.	.	.
.	.	.	.	.	16g\JJ	.	.	.	.	.	.	.	.	.	.	.
8BB/	.	.	8r	.	16dd\LL	.	.	.	.	.	.	.	.	.	.	.
.	.	.	.	.	16g\	.	.	.	.	.	.	.	.	.	.	.
8BB/	.	.	8dd\L	.	16dd\	.	.	.	8Bn\L	.	.	.	.	.	.	.
.	.	.	.	.	16g\JJ	.	.	.	.	.	.	.	.	.	.	.
8BB/	.	.	8g\	.	16dd\LL	.	.	.	8d\	.	.	.	.	.	.	.
.	.	.	.	.	16g\	.	.	.	.	.	.	.	.	.	.	.
8BB/J	5	.	8dd\J	.	16dd\	.	.	.	8f\J	.	.	.	.	.	.	.
.	.	.	.	.	16g\JJ	.	.	.	.	.	.	.	.	.	.	.
=35	=35	=35	=35	=35	=35	=35	=35	=35	=35	=35	=35	=35	=35	=35	=35	=35
8C/L	9 4	.	8r	.	16dd\LL	.	2.r	.	4f\	.	2.r	.	2.r	.	2.ryy	2.ryy
.	.	.	.	.	16g\	.	.	.	.	.	.	.	.	.	.	.
8C/	.	.	8f/	.	16dd\	.	.	.	.	.	.	.	.	.	.	.
.	.	.	.	.	16g\JJ	.	.	.	.	.	.	.	.	.	.	.
8C/	8 3	.	8r	.	16cc\LL	.	.	.	4e\	-des	.	.	.	.	.	.
.	.	.	.	.	16g\	.	.	.	.	.	.	.	.	.	.	.
8C/	.	.	8e/L	.	16cc\	.	.	.	.	.	.	.	.	.	.	.
.	.	.	.	.	16g\JJ	.	.	.	.	.	.	.	.	.	.	.
8E/	.	.	8g/	.	16gg\LL	.	.	.	8r	.	.	.	.	.	.	.
.	.	.	.	.	16cc\	.	.	.	.	.	.	.	.	.	.	.
8E/J	.	.	8cc/J	.	16gg\	.	.	.	8G/	Si	.	.	.	.	.	.
.	.	.	.	.	16cc\JJ	.	.	.	.	.	.	.	.	.	.	.
!LO:LB:g=original	!	!	!	!	!	!	!	!	!	!	!	!	!	!	!	!
=36	=36	=36	=36	=36	=36	=36	=36	=36	=36	=36	=36	=36	=36	=36	=36	=36
4F\	5	.	8cc\	.	8cc\	.	2.r	.	8.A/	Sum-	2.r	.	2.r	.	2.ryy	2.ryy
.	.	.	4a/	.	4ff\	.	.	.	.	.	.	.	.	.	.	.
.	.	.	.	.	.	.	.	.	16A/	-pse-	.	.	.	.	.	.
4F\	6	.	.	.	.	.	.	.	8A\L	-ro	.	.	.	.	.	.
.	.	.	8f/L	.	8dd\L	.	.	.	8d\J	.	.	.	.	.	.	.
4G\	n4r	.	8e/	.	8cc\	.	.	.	8c\	p(ae)-	.	.	.	.	.	.
.	.	.	8d/J	.	8bn\J	.	.	.	8Bn\	-nas	.	.	.	.	.	.
!	!	!	!	!	!LO:LB:g=original	!	!	!	!	!	!	!	!	!	!	!
=37	=37	=37	=37	=37	=37	=37	=37	=37	=37	=37	=37	=37	=37	=37	=37	=37
8C/L	.	.	8e/L	.	8cc\L	.	2.r	.	4B-\	me-	2.r	.	2.r	.	2.ryy	2.ryy
8C/	.	.	8g/	.	8dd\J	.	.	.	.	.	.	.	.	.	.	.
8C/	.	.	8g/	.	2ee\	.	.	.	4G\	-as	.	.	.	.	.	.
8C/	.	.	8g/	.	.	.	.	.	.	.	.	.	.	.	.	.
8C/	.	.	8g/	.	.	.	.	.	4e\	di-	.	.	.	.	.	.
8C/J	.	.	8g/J	.	.	.	.	.	.	.	.	.	.	.	.	.
=38	=38	=38	=38	=38	=38	=38	=38	=38	=38	=38	=38	=38	=38	=38	=38	=38
8F#X\L	7	.	8a/L	.	16ee\LL	.	2.r	.	(4e\	-lu-	2.r	.	2.r	.	2.ryy	2.ryy
.	.	.	.	.	16dd\	.	.	.	.	.	.	.	.	.	.	.
8F#\	.	.	8a/	.	16cc#X\	.	.	.	.	.	.	.	.	.	.	.
.	.	.	.	.	16dd\JJ	.	.	.	.	.	.	.	.	.	.	.
8F#\	.	.	8a/	.	16aa\LL	.	.	.	4d\)	.	.	.	.	.	.	.
.	.	.	.	.	16dd\	.	.	.	.	.	.	.	.	.	.	.
8F#\	6	.	8a/	.	16aa\	.	.	.	.	.	.	.	.	.	.	.
.	.	.	.	.	16dd\JJ	.	.	.	.	.	.	.	.	.	.	.
8F#\	5	.	8a/	.	16aa\LL	.	.	.	4c\	-cu-	.	.	.	.	.	.
.	.	.	.	.	16ccn\	.	.	.	.	.	.	.	.	.	.	.
8F#\J	.	.	8a/J	.	16aa\	.	.	.	.	.	.	.	.	.	.	.
.	.	.	.	.	16cc\JJ	.	.	.	.	.	.	.	.	.	.	.
!	!	!	!	!	!	!	!	!	!LO:LB:g=original	!	!	!	!	!	!	!
=39	=39	=39	=39	=39	=39	=39	=39	=39	=39	=39	=39	=39	=39	=39	=39	=39
!	!	!	!	!	!	!	!	!	!	!	!	!	!	!	!	!
.	.	.	.	.	8qqcc/	.	.	.	8qqc/	.	.	.	.	.	.	.
8G\L	n	.	16g/LL	.	16b-\LL	.	2.r	.	4Bn\	-lo	2.r	.	2.r	.	2.ryy	2.ryy
.	.	.	16bn/	.	16dd\	.	.	.	.	.	.	.	.	.	.	.
8GG/J	.	.	16g/	.	16b-\	.	.	.	.	.	.	.	.	.	.	.
.	.	.	16b/JJ	.	16g\JJ	.	.	.	.	.	.	.	.	.	.	.
4GG/	.	.	4b/	.	4gg\	.	.	.	4r	.	.	.	.	.	.	.
4r	.	.	4r	.	4r	.	.	.	4G/	(et)	.	.	.	.	.	.
=40	=40	=40	=40	=40	=40	=40	=40	=40	=40	=40	=40	=40	=40	=40	=40	=40
!LO:TX:t=P:problem=falowana linia w takcie 40-42	!	!	!	!	!	!	!	!	!	!	!	!	!	!	!	!
8GG/L	n	.	(8dd\L	.	8bbn\L	.	2.r	.	8G/	ha-	2.r	.	2.r	.	2.ryy	2.ryy
8GG/	.	.	8dd\	.	8bb\	.	.	.	8Bn\	-bi-	.	.	.	.	.	.
8GG/	.	.	8dd\	.	8bb\	.	.	.	8.d\	-ta-	.	.	.	.	.	.
8GG/	.	.	8dd\	.	8bb\	.	.	.	.	.	.	.	.	.	.	.
.	.	.	.	.	.	.	.	.	16B\	-ve-	.	.	.	.	.	.
8GG/	.	.	8dd\)	.	8bb\	.	.	.	8G/	-ro	.	.	.	.	.	.
8GG/J	.	.	8dd\J	.	8bb\J	.	.	.	16G/	in	.	.	.	.	.	.
.	.	.	.	.	.	.	.	.	16G/	ex-	.	.	.	.	.	.
!	!	!	!LO:LB:g=original	!	!	!	!	!	!	!	!	!	!	!	!	!
=41	=41	=41	=41	=41	=41	=41	=41	=41	=41	=41	=41	=41	=41	=41	=41	=41
!	!	!	!LO:TX:t=P:problem=falowana linia do końca taktu	!	!	!	!	!	!	!	!	!	!	!	!	!
8GG/L	6 4	.	8ee\L	.	8ccc\L	.	2.r	.	8G/	-tre-	2.r	.	2.r	.	2.ryy	2.ryy
8GG/	.	.	8ee\	.	8ccc\	.	.	.	8c\	-mis	.	.	.	.	.	.
8GG/	.	.	8ee\	.	8ccc\	.	.	.	8e\L	Ma-	.	.	.	.	.	.
8GG/	.	.	8ee\	.	8ccc\	.	.	.	8c\J	.	.	.	.	.	.	.
8GG/	.	.	8ee\	.	8ccc\	.	.	.	4G/	-ris	.	.	.	.	.	.
8GG/J	.	.	8ee\J	.	8ccc\J	.	.	.	.	.	.	.	.	.	.	.
=42	=42	=42	=42	=42	=42	=42	=42	=42	=42	=42	=42	=42	=42	=42	=42	=42
8GG/L	7 n	.	8bn\L	.	8ddd\L	.	2.r	.	8r	.	2.r	.	2.r	.	2.ryy	2.ryy
8GG/	.	.	8b\	.	8ddd\	.	.	.	8G/	(et)	.	.	.	.	.	.
8GG/	.	.	8b\	.	8ddd\	.	.	.	8f\	e-	.	.	.	.	.	.
!	!	!	!	!	!	!	!	!	!	!	!	!	!	!	!	!
8GG/	6 4	.	8cc\	.	8ccc\	.	.	.	8e\	-nim	.	.	.	.	.	.
!	!	!	!	!	!	!	!	!	!LO:LB:g=original	!	!	!	!	!	!	!
8GG/	5 n	.	8dd\	.	8bbn\	.	.	.	8d\	il-	.	.	.	.	.	.
8GG/J	6 4	.	8ee\J	.	8ccc\J	.	.	.	8c\	-luc	.	.	.	.	.	.
!LO:LB:g=original	!	!	!	!	!LO:LB:g=original	!	!	!	!	!	!	!	!	!	!	!
=43	=43	=43	=43	=43	=43	=43	=43	=43	=43	=43	=43	=43	=43	=43	=43	=43
8GG/	5 n	.	8bn\	.	8dd\	.	2.r	.	16B#X\LL	Ma-	2.r	.	2.r	.	2.ryy	2.ryy
.	.	.	.	.	.	.	.	.	16d\	.	.	.	.	.	.	.
8r	.	.	8r	.	8r	.	.	.	16c\	.	.	.	.	.	.	.
.	.	.	.	.	.	.	.	.	16B#\JJ	.	.	.	.	.	.	.
8C/	.	.	8cc\	.	8ee\	.	.	.	16c\LL	.	.	.	.	.	.	.
.	.	.	.	.	.	.	.	.	32d\L	.	.	.	.	.	.	.
.	.	.	.	.	.	.	.	.	32e\J	.	.	.	.	.	.	.
8r	.	.	8r	.	8r	.	.	.	16d\	.	.	.	.	.	.	.
.	.	.	.	.	.	.	.	.	16c\JJ	.	.	.	.	.	.	.
8BBn/	.	.	8dd\	.	8ff\	.	.	.	16d\LL	.	.	.	.	.	.	.
.	.	.	.	.	.	.	.	.	32e\L	.	.	.	.	.	.	.
.	.	.	.	.	.	.	.	.	32f\J	.	.	.	.	.	.	.
8r	.	.	8r	.	8r	.	.	.	16e\	.	.	.	.	.	.	.
.	.	.	.	.	.	.	.	.	16d\JJ	.	.	.	.	.	.	.
=44	=44	=44	=44	=44	=44	=44	=44	=44	=44	=44	=44	=44	=44	=44	=44	=44
8C\L	.	.	8g/L	.	8ee\L	.	2.r	.	4e\	.	2.r	.	2.r	.	2.ryy	2.ryy
8C\	.	.	8e/	.	8gg\	.	.	.	.	.	.	.	.	.	.	.
8D\	n	.	8f/	.	8bn\	.	.	.	4Bn\	-nus	.	.	.	.	.	.
8D\	6	.	8f/	.	8dd\	.	.	.	.	.	.	.	.	.	.	.
8E\	6	.	8g/	.	8cc\	.	.	.	8c\	tu-	.	.	.	.	.	.
8F\J	.	.	8c/J	.	8a\J	.	.	.	8A\	-a	.	.	.	.	.	.
=45	=45	=45	=45	=45	=45	=45	=45	=45	=45	=45	=45	=45	=45	=45	=45	=45
!	!	!	!LO:TX:t=P:problem=mixedbeam	!	!	!	!	!	!	!	!	!	!	!	!	!
8F\L	5	.	8c/L	.	8a\L	.	2.r	.	8f\L	de-	2.r	.	2.r	.	2.ryy	2.ryy
8F\	6	.	8ff/	.	8aa\	.	.	.	8d\J	.	.	.	.	.	.	.
8G\	4	.	8ee/	.	8aa\	.	.	.	4c\	-du-	.	.	.	.	.	.
8G\	.	.	8ee/	.	8gg\	.	.	.	.	.	.	.	.	.	.	.
8GG/	.	.	8f/	.	8bn\	.	.	.	8d\	.	.	.	.	.	.	.
8GG/J	.	.	8f/J	.	8b\J	.	.	.	16c\LL	-cet	.	.	.	.	.	.
.	.	.	.	.	.	.	.	.	16Bn\JJ	.	.	.	.	.	.	.
=46	=46	=46	=46	=46	=46	=46	=46	=46	=46	=46	=46	=46	=46	=46	=46	=46
!	!	!	!	!	!	!	!	!	!	!	!	!	!	!	!	!
8C/L	.	.	8e/L	.	8cc\L	.	2.r	.	4c\	me	2.r	.	2.r	.	2.ryy	2.ryy
8C/	.	.	8e/	.	8g\J	.	.	.	.	.	.	.	.	.	.	.
!	!	!	!	!	!	!	!	!	!LO:LB:g=original	!	!	!	!	!	!	!
8F\	.	.	8c/	.	16a\LL	.	.	.	4.A/	(et)	.	.	.	.	.	.
.	.	.	.	.	16cc\	.	.	.	.	.	.	.	.	.	.	.
8F\	.	.	8c/	.	16b-\	.	.	.	.	.	.	.	.	.	.	.
.	.	.	.	.	16a\JJ	.	.	.	.	.	.	.	.	.	.	.
8F\	.	.	8c/	.	8ff\L	.	.	.	.	.	.	.	.	.	.	.
8F\J	.	.	8c/J	.	8a\J	.	.	.	8A/	te-	.	.	.	.	.	.
=47	=47	=47	=47	=47	=47	=47	=47	=47	=47	=47	=47	=47	=47	=47	=47	=47
4BBn/	6:5	.	4d/	.	2.g/	.	2.r	.	16G\LL	-ne-	2.r	.	2.r	.	2.ryy	2.ryy
.	.	.	.	.	.	.	.	.	16Bn\JJ	.	.	.	.	.	.	.
.	.	.	.	.	.	.	.	.	16d\LL	-bit	.	.	.	.	.	.
.	.	.	.	.	.	.	.	.	16f\JJ	.	.	.	.	.	.	.
.	.	.	.	.	.	.	.	.	16qqf/	.	.	.	.	.	.	.
4C/	.	.	4e/	.	.	.	.	.	4e\	me	.	.	.	.	.	.
8r	.	.	4f/	.	.	.	.	.	16G\LL	dex-	.	.	.	.	.	.
.	.	.	.	.	.	.	.	.	16B\	.	.	.	.	.	.	.
8BB/	.	.	.	.	.	.	.	.	16d\	.	.	.	.	.	.	.
.	.	.	.	.	.	.	.	.	16f\JJ	.	.	.	.	.	.	.
!	!	!	!LO:LB:g=original	!	!	!	!	!	!	!	!	!	!	!	!	!
=48	=48	=48	=48	=48	=48	=48	=48	=48	=48	=48	=48	=48	=48	=48	=48	=48
!	!	!	!	!	!LO:TX:t=P:problem=mixed beam	!	!	!	!	!	!	!	!	!	!	!
4C/	.	.	8e/L	.	8g/L	.	2.r	.	16e\LL	-te-	2.r	.	2.r	.	2.ryy	2.ryy
.	.	.	.	.	.	.	.	.	16c\JJ	.	.	.	.	.	.	.
.	.	.	16a/L	.	16dd\L	.	.	.	16f\LL	-ra	.	.	.	.	.	.
.	.	.	16f/JJ	.	16ff\JJ	.	.	.	16d\JJ	.	.	.	.	.	.	.
!	!	!	!	!	!	!	!	!	!	!	!	!	!	!	!	!
8G\L	4	.	8e/L	.	4cc\	.	.	.	4c\	tu-	.	.	.	.	.	.
8G\	.	.	8e/	.	.	.	.	.	.	.	.	.	.	.	.	.
8GG/	.	.	8d/	.	4bn\	.	.	.	4d\	.	.	.	.	.	.	.
8GG/J	n	.	8d/J	.	.	.	.	.	.	.	.	.	.	.	.	.
!LO:LB:g=original	!	!	!	!	!LO:LB:g=original	!	!	!	!	!	!	!	!	!	!	!
=49	=49	=49	=49	=49	=49	=49	=49	=49	=49	=49	=49	=49	=49	=49	=49	=49
8C/L	.	.	8ee\L	.	8.gg\L	.	2.r	.	4c\	-a	2.r	.	2.r	.	2.ryy	2.ryy
8C/	.	.	8ee\	.	.	.	.	.	.	.	.	.	.	.	.	.
.	.	.	.	.	16ee\K	.	.	.	.	.	.	.	.	.	.	.
8C/	.	.	8ee\	.	8cc\	.	.	.	4r	.	.	.	.	.	.	.
8C/	.	.	8ee\	.	8ccc\	.	.	.	.	.	.	.	.	.	.	.
8C/	.	.	8gg\	.	8bbn\	.	.	.	4r	.	.	.	.	.	.	.
8C/J	6 4	.	8ff\J	.	8aa\J	.	.	.	.	.	.	.	.	.	.	.
=50	=50	=50	=50	=50	=50	=50	=50	=50	=50	=50	=50	=50	=50	=50	=50	=50
.	.	.	.	.	8qqaa/	.	.	.	.	.	.	.	.	.	.	.
8C/L	6 3	.	8ee\L	.	4.gg\	.	2.r	.	2.r	.	2.r	.	2.r	.	2.ryy	2.ryy
8C/	5	.	8ee\	.	.	.	.	.	.	.	.	.	.	.	.	.
8C/	.	.	8ee\	.	.	.	.	.	.	.	.	.	.	.	.	.
8C/	.	.	8ff\	.	8aa\L	.	.	.	.	.	.	.	.	.	.	.
.	.	.	.	.	8qqgg/	.	.	.	.	.	.	.	.	.	.	.
8C/	.	.	8a\	.	8ff\	.	.	.	.	.	.	.	.	.	.	.
.	.	.	.	.	8qqee/	.	.	.	.	.	.	.	.	.	.	.
8F/J	6	.	8a\J	.	8dd\J	.	.	.	.	.	.	.	.	.	.	.
=51	=51	=51	=51	=51	=51	=51	=51	=51	=51	=51	=51	=51	=51	=51	=51	=51
!	!	!	!	!	!	!	!	!	!	!	!	!	!	!	!	!
8F\L	.	.	8f/L	.	16a\LL	.	2.r	.	2.r	.	2.r	.	2.r	.	2.ryy	2.ryy
.	.	.	.	.	16dd\	.	.	.	.	.	.	.	.	.	.	.
8D\	.	.	8f/	.	16ff\	.	.	.	.	.	.	.	.	.	.	.
.	.	.	.	.	16dd\JJ	.	.	.	.	.	.	.	.	.	.	.
8G\	4|	.	8e/	.	4cc\	.	.	.	.	.	.	.	.	.	.	.
8G\	.	.	8e/	.	.	.	.	.	.	.	.	.	.	.	.	.
8GG/	.	.	8d/	.	4bn\	.	.	.	.	.	.	.	.	.	.	.
8GG/J	n	.	8d/J	.	.	.	.	.	.	.	.	.	.	.	.	.
=52	=52	=52	=52	=52	=52	=52	=52	=52	=52	=52	=52	=52	=52	=52	=52	=52
4r	.	.	16a\LL	.	16a\LL	.	2.r	.	2.r	.	2.r	.	2.r	.	2.ryy	2.ryy
.	.	.	16dd\	.	16dd\	.	.	.	.	.	.	.	.	.	.	.
.	.	.	16ff\	.	16ff\	.	.	.	.	.	.	.	.	.	.	.
.	.	.	16dd\JJ	.	16dd\JJ	.	.	.	.	.	.	.	.	.	.	.
!	!	!	!	!	!	!	!	!	!	!	!	!	!	!	!	!
8r	.	.	8aa\L	.	16aa\LL	.	.	.	.	.	.	.	.	.	.	.
.	.	.	.	.	16a\	.	.	.	.	.	.	.	.	.	.	.
!	!	!	!	!	!	!	!	!	!	!	!	!	!	!	!	!
8F\L	6	.	16a/L	.	16ff\	.	.	.	.	.	.	.	.	.	.	.
.	.	.	16f/JJ	.	16dd\JJ	.	.	.	.	.	.	.	.	.	.	.
.	.	.	.	.	8qqcc/	.	.	.	.	.	.	.	.	.	.	.
8G\	4	.	8e/L	.	4bn\	.	.	.	.	.	.	.	.	.	.	.
8GG/J	n	.	8d/J	.	.	.	.	.	.	.	.	.	.	.	.	.
=53	=53	=53	=53	=53	=53	=53	=53	=53	=53	=53	=53	=53	=53	=53	=53	=53
8.C\L	.	.	8.e/L	.	8.cc\L	.	2.r	.	4r	.	2.r	.	2.r	.	2.ryy	2.ryy
16G\Jk	.	.	16g/Jk	.	16g\Jk	.	.	.	.	.	.	.	.	.	.	.
16E\LL	.	.	16e/LL	.	16e/LL	.	.	.	4r	.	.	.	.	.	.	.
16F\J	.	.	16f/J	.	16f/J	.	.	.	.	.	.	.	.	.	.	.
8G\J	.	.	8g/J	.	8g/J	.	.	.	.	.	.	.	.	.	.	.
4C/	.	.	4c/	.	4c/	.	.	.	8r	.	.	.	.	.	.	.
.	.	.	.	.	.	.	.	.	8c\	(et)	.	.	.	.	.	.
=54	=54	=54	=54	=54	=54	=54	=54	=54	=54	=54	=54	=54	=54	=54	=54	=54
4r	.	.	4r	.	4r	.	2.r	.	8Bn\L	di-	2.r	.	2.r	.	2.ryy	2.ryy
.	.	.	.	.	.	.	.	.	8d\J	.	.	.	.	.	.	.
!	!	!	!	!	!	!	!	!	!	!	!	!	!	!	!	!
4D\	n	.	4bn\	p	8r	.	.	.	4f\	-xi	.	.	.	.	.	.
.	.	.	.	.	4ff\	.	.	.	.	.	.	.	.	.	.	.
!	!	!	!	!	!	!	!	!	!LO:LB:g=original	!	!	!	!	!	!	!
4C\	6	.	4cc\	.	.	.	.	.	4r	.	.	.	.	.	.	.
.	.	.	.	.	8ff\	.	.	.	.	.	.	.	.	.	.	.
!	!	!	!LO:LB:g=original	!	!LO:LB:g=original	!	!	!	!	!	!	!	!	!	!	!
=55	=55	=55	=55	=55	=55	=55	=55	=55	=55	=55	=55	=55	=55	=55	=55	=55
8BBn/L	.	.	8dd\L	.	8ff\L	.	2.r	.	8f\	for-	2.r	.	2.r	.	2.ryy	2.ryy
8C/J	.	.	8cc\	.	8ee\J	.	.	.	8e\	-si-	.	.	.	.	.	.
!	!	!	!	!	!	!	!	!	!	!	!	!	!	!	!	!
2F\	6:-5r	.	8bn\	.	4r	.	.	.	(8d\L	-tan	.	.	.	.	.	.
.	.	.	8cc\	.	.	.	.	.	8c\J)	.	.	.	.	.	.	.
.	.	.	8b\	.	4r	.	.	.	16Bn\	Te-	.	.	.	.	.	.
.	.	.	.	.	.	.	.	.	16B\	-ne-	.	.	.	.	.	.
.	.	.	8a\J	.	.	.	.	.	8A\	-br(ae)	.	.	.	.	.	.
!LO:LB:g=original	!	!	!	!	!	!	!	!	!	!	!	!	!	!	!	!
=56	=56	=56	=56	=56	=56	=56	=56	=56	=56	=56	=56	=56	=56	=56	=56	=56
!	!	!	!	!	!	!	!	!	!	!	!	!	!	!	!	!
8E\L	6	.	8g/L	.	8.cc\L	.	2.r	.	8G\	con-	2.r	.	2.r	.	2.ryy	2.ryy
8C\	6 4	.	8a/	.	.	.	.	.	16c\LL	-cul-	.	.	.	.	.	.
.	.	.	.	.	16ff\Jk	.	.	.	16A\JJ	.	.	.	.	.	.	.
8D\	7	.	8g/	.	8ee\L	.	.	.	4G/	-ca-	.	.	.	.	.	.
8D\	.	.	8g/	.	8cc\	.	.	.	.	.	.	.	.	.	.	.
8GG/	n	.	8f/	.	8dd\	.	.	.	4F/	-bunt	.	.	.	.	.	.
8GG/J	.	.	8f/J	.	8bn\J	.	.	.	.	.	.	.	.	.	.	.
=57	=57	=57	=57	=57	=57	=57	=57	=57	=57	=57	=57	=57	=57	=57	=57	=57
8C/L	.	.	8e/	.	8cc/L	.	2.r	.	4E/	me	2.r	.	2.r	.	2.ryy	2.ryy
8C/	.	.	4gg\	.	8e/	.	.	.	.	.	.	.	.	.	.	.
8C/	.	.	.	.	8e/	.	.	.	8r	.	.	.	.	.	.	.
8D/J	.	.	8cc\	.	8e/J	.	.	.	8c\	(et)	.	.	.	.	.	.
8E\L	.	.	16c/LL	.	8g/L	.	.	.	4c\	nox	.	.	.	.	.	.
.	.	.	16g/J	.	.	.	.	.	.	.	.	.	.	.	.	.
16F\L	.	.	8e/J	.	16a/L	.	.	.	.	.	.	.	.	.	.	.
16G\JJ	.	.	.	.	16b-/JJ	.	.	.	.	.	.	.	.	.	.	.
=58	=58	=58	=58	=58	=58	=58	=58	=58	=58	=58	=58	=58	=58	=58	=58	=58
.	.	.	.	.	8qqb-/	.	.	.	.	.	.	.	.	.	.	.
4F\	.	.	8f/	.	4a/	.	2.r	.	8r	.	2.r	.	2.r	.	2.ryy	2.ryy
.	.	.	4r	.	.	.	.	.	8f\	Il-	.	.	.	.	.	.
4r	.	.	.	.	4r	.	.	.	8e\	-lu-	.	.	.	.	.	.
.	.	.	8b-/L	.	.	.	.	.	8d\	-mi-	.	.	.	.	.	.
4F\	6 5:4	.	8a/	.	8r	.	.	.	8c\	-na-	.	.	.	.	.	.
.	.	.	8g/J	.	8b-\	.	.	.	16d\	-ti-	.	.	.	.	.	.
.	.	.	.	.	.	.	.	.	16d\	-o	.	.	.	.	.	.
!	!	!	!	!	!	!	!	!	!LO:LB:g=original	!	!	!	!	!	!	!
=59	=59	=59	=59	=59	=59	=59	=59	=59	=59	=59	=59	=59	=59	=59	=59	=59
8C\L	6 4	.	8f/L	.	16a\LL	.	2.r	.	(4c\	me-	2.r	.	2.r	.	2.ryy	2.ryy
.	.	.	.	.	16cc\	.	.	.	.	.	.	.	.	.	.	.
8C\	.	.	8a/	.	16ff\	.	.	.	.	.	.	.	.	.	.	.
.	.	.	.	.	16aa\JJ	.	.	.	.	.	.	.	.	.	.	.
8E\	.	.	8g/	.	8b-\L	.	.	.	4B-\)	.	.	.	.	.	.	.
8E\	.	.	8c/J	.	8gg\	.	.	.	.	.	.	.	.	.	.	.
8F\	.	.	4c/	.	8a\	.	.	.	4A\	-a	.	.	.	.	.	.
8F\J	.	.	.	.	8ff\J	.	.	.	.	.	.	.	.	.	.	.
=60	=60	=60	=60	=60	=60	=60	=60	=60	=60	=60	=60	=60	=60	=60	=60	=60
8AA/L	6	.	4c/	.	8r	.	2.r	.	2f\	in	2.r	.	2.r	.	2.ryy	2.ryy
8AA/	.	.	.	.	4ff\	.	.	.	.	.	.	.	.	.	.	.
8BB-/	.	.	4d/	.	.	.	.	.	.	.	.	.	.	.	.	.
8BB-/	.	.	.	.	8ee\L	.	.	.	.	.	.	.	.	.	.	.
8BB-/	.	.	4d/	.	8dd\	.	.	.	4d\	de-	.	.	.	.	.	.
8BB-/J	.	.	.	.	8cc\J	.	.	.	.	.	.	.	.	.	.	.
!	!	!	!	!	!LO:LB:g=original	!	!	!	!	!	!	!	!	!	!	!
=61	=61	=61	=61	=61	=61	=61	=61	=61	=61	=61	=61	=61	=61	=61	=61	=61
.	.	.	.	.	.	.	.	.	8qqc/	.	.	.	.	.	.	.
8BB-/L	6	.	8g/	.	8b-\	.	2.r	.	4.B-\	-li-	2.r	.	2.r	.	2.ryy	2.ryy
8BB-/	.	.	4b-/	.	4gg\	.	.	.	.	.	.	.	.	.	.	.
8BB-/	.	.	.	.	.	.	.	.	.	.	.	.	.	.	.	.
8BB-/	.	.	8g/	.	8b-\	.	.	.	8B-\	-ci-	.	.	.	.	.	.
8BB-/	5	.	8f/L	.	8a\L	.	.	.	4A\	-is	.	.	.	.	.	.
8BB-/J	.	.	8a/J	.	8ff\J	.	.	.	.	.	.	.	.	.	.	.
!	!	!	!LO:LB:g=original	!	!	!	!	!	!	!	!	!	!	!	!	!
=62	=62	=62	=62	=62	=62	=62	=62	=62	=62	=62	=62	=62	=62	=62	=62	=62
8C/L	4	.	4a/	.	4ff\	.	2.r	.	4A\	me-	2.r	.	2.r	.	2.ryy	2.ryy
8C/	.	.	.	.	.	.	.	.	.	.	.	.	.	.	.	.
8C/	3	.	4g/	.	4ee\	.	.	.	4G/	-is	.	.	.	.	.	.
8C/	.	.	.	.	.	.	.	.	.	.	.	.	.	.	.	.
8E/	.	.	8c/L	.	16a\LL	.	.	.	4r	.	.	.	.	.	.	.
.	.	.	.	.	16g\	.	.	.	.	.	.	.	.	.	.	.
8C/J	.	.	8g/J	.	16a\	.	.	.	.	.	.	.	.	.	.	.
.	.	.	.	.	16b-\JJ	.	.	.	.	.	.	.	.	.	.	.
!LO:LB:g=original	!	!	!	!	!	!	!	!	!	!	!	!	!	!	!	!
=63	=63	=63	=63	=63	=63	=63	=63	=63	=63	=63	=63	=63	=63	=63	=63	=63
4F\	.	.	8a/L	.	8.cc\L	.	2.r	.	8.c\L	qui-	2.r	.	2.r	.	2.ryy	2.ryy
.	.	.	8f/	.	.	.	.	.	.	.	.	.	.	.	.	.
.	.	.	.	.	16a\Jk	.	.	.	16A\Jk	.	.	.	.	.	.	.
!	!	!	!	!	!	!	!	!	!	!	!	!	!	!	!	!
4F\	8	.	8A/	.	8f/L	.	.	.	8F/L	-a	.	.	.	.	.	.
.	.	.	8a/	.	8ff\	.	.	.	8f\J	Te-	.	.	.	.	.	.
4F\	7:6 5:4	.	8cc/	.	8ee\	.	.	.	8e\	-ne-	.	.	.	.	.	.
.	.	.	8b-/J	.	8dd\J	.	.	.	8d\	-br(ae)	.	.	.	.	.	.
=64	=64	=64	=64	=64	=64	=64	=64	=64	=64	=64	=64	=64	=64	=64	=64	=64
.	.	.	.	.	8qqdd/	.	.	.	.	.	.	.	.	.	.	.
4F\	6 4	.	8b-\L	.	4.cc\	.	2.r	.	8c\	non	2.r	.	2.r	.	2.ryy	2.ryy
.	.	.	8a\	.	.	.	.	.	8c\	ob-	.	.	.	.	.	.
4F\	5 3	.	8a\	.	.	.	.	.	4c\	-scur-	.	.	.	.	.	.
.	.	.	8cc\	.	8aa\L	.	.	.	.	.	.	.	.	.	.	.
4F\	.	.	8b-\	.	8gg\	.	.	.	8B-\	-ra-	.	.	.	.	.	.
.	.	.	8a\J	.	8ff\J	.	.	.	8A\	-bun-	.	.	.	.	.	.
!	!	!	!	!	!	!	!	!	!LO:LB:g=original	!	!	!	!	!	!	!
=65	=65	=65	=65	=65	=65	=65	=65	=65	=65	=65	=65	=65	=65	=65	=65	=65
4C/	4:3	.	8a\L	.	8ff\L	.	2.r	.	8A/L	-tur	2.r	.	2.r	.	2.ryy	2.ryy
.	.	.	16g\L	.	16ee\L	.	.	.	16G/L	.	.	.	.	.	.	.
.	.	.	16a\JJ	.	16ff\JJ	.	.	.	16A/JJ	.	.	.	.	.	.	.
8r	.	.	4b-\	.	4gg\	.	.	.	4B-/	.	.	.	.	.	.	.
8C/L	.	.	.	.	.	.	.	.	.	.	.	.	.	.	.	.
8D/	.	.	4a\	.	4b-\	.	.	.	4B-\	a	.	.	.	.	.	.
8E/J	.	.	.	.	.	.	.	.	.	.	.	.	.	.	.	.
=66	=66	=66	=66	=66	=66	=66	=66	=66	=66	=66	=66	=66	=66	=66	=66	=66
.	.	.	8qqg/	.	.	.	.	.	8qqB-/	.	.	.	.	.	.	.
8F\L	.	.	4f/	.	16a/LL	.	2.r	.	4A\	te	2.r	.	2.r	.	2.ryy	2.ryy
.	.	.	.	.	16f/	.	.	.	.	.	.	.	.	.	.	.
8F\	.	.	.	.	16a/	.	.	.	.	.	.	.	.	.	.	.
.	.	.	.	.	16b-/JJ	.	.	.	.	.	.	.	.	.	.	.
8F\	.	.	8c/L	.	8cc\L	.	.	.	8r	.	.	.	.	.	.	.
8F\	.	.	16f/L	.	8ee-X\J	.	.	.	8F/	(et)	.	.	.	.	.	.
.	.	.	16g/JJ	.	.	.	.	.	.	.	.	.	.	.	.	.
!	!	!	!	!	!LO:TX:t=P:problem=niepełny takt	!	!	!	!	!	!	!	!	!	!	!
8F\	-	.	8a\L	.	4ryy	.	.	.	4e-X\	nox	.	.	.	.	.	.
8F\J	7	.	8cc\J	.	.	.	.	.	.	.	.	.	.	.	.	.
=67	=67	=67	=67	=67	=67	=67	=67	=67	=67	=67	=67	=67	=67	=67	=67	=67
8F#X\L	.	.	8cc\L	.	8ee-X\	.	2.r	.	(4e\	Si-	2.r	.	2.r	.	2.ryy	2.ryy
8F#\	.	.	8cc\	.	4dd\	.	.	.	.	.	.	.	.	.	.	.
8F#\	.	.	8a\	.	.	.	.	.	4d\)	.	.	.	.	.	.	.
8F#\	.	.	8a\	.	4aa\	.	.	.	.	.	.	.	.	.	.	.
8F#\	6	.	8a\	.	.	.	.	.	4c\	-cut	.	.	.	.	.	.
8F#\J	5	.	8a\J	.	8cc\	.	.	.	.	.	.	.	.	.	.	.
!	!	!	!	!	!LO:LB:g=original	!	!	!	!	!	!	!	!	!	!	!
=68	=68	=68	=68	=68	=68	=68	=68	=68	=68	=68	=68	=68	=68	=68	=68	=68
!	!	!	!LO:TX:t=P:problem=mixedbeam	!	!	!	!	!	!	!	!	!	!	!	!	!
8G\L	4	.	8d/L	.	8cc\L	.	2.r	.	4c\	di-	2.r	.	2.r	.	2.ryy	2.ryy
8G\	.	.	8d/	.	16b-\L	.	.	.	.	.	.	.	.	.	.	.
.	.	.	.	.	16a\JJ	.	.	.	.	.	.	.	.	.	.	.
!	!	!	!	!	!LO:TX:t=P:problem=mixedbeam	!	!	!	!	!	!	!	!	!	!	!
8G\	3	.	8d/	.	8b-\L	.	.	.	8B-\	-es	.	.	.	.	.	.
8G\	.	.	8d/	.	8G/J	.	.	.	8d\	il-	.	.	.	.	.	.
8G\	.	.	8b-\	.	4dd\	.	.	.	8d\	-lu-	.	.	.	.	.	.
*	*	*	*custos:b-	*	*	*	*	*	*	*	*	*	*	*	*	*
8Fn\J	.	.	8b-\J	.	.	.	.	.	8d\	-mi-	.	.	.	.	.	.
!	!	!	!LO:LB:g=original	!	!	!	!	!	!	!	!	!	!	!	!	!
=69	=69	=69	=69	=69	=69	=69	=69	=69	=69	=69	=69	=69	=69	=69	=69	=69
8E\L	7	.	8b-\L	.	4dd\	.	2.r	.	(4d\	-na-	2.r	.	2.r	.	2.ryy	2.ryy
8E\	.	.	8b-\	.	.	.	.	.	.	.	.	.	.	.	.	.
8E\	6	.	8a\	.	8cc\	.	.	.	4c\)	.	.	.	.	.	.	.
8E\	.	.	8a\	.	4gg\	.	.	.	.	.	.	.	.	.	.	.
8E\	5	.	8b-\	.	.	.	.	.	4B-\	-bi-	.	.	.	.	.	.
8E\J	.	.	8g\J	.	8b-\	.	.	.	.	.	.	.	.	.	.	.
!LO:LB:g=original	!	!	!	!	!	!	!	!	!	!	!	!	!	!	!	!
=70	=70	=70	=70	=70	=70	=70	=70	=70	=70	=70	=70	=70	=70	=70	=70	=70
8G\L	.	.	8f/L	.	16a\LL	.	2.r	.	4A\	-tur	2.r	.	2.r	.	2.ryy	2.ryy
.	.	.	.	.	16f\	.	.	.	.	.	.	.	.	.	.	.
8G\	.	.	16e/L	.	16g\	.	.	.	.	.	.	.	.	.	.	.
.	.	.	16f/JJ	.	16a\JJ	.	.	.	.	.	.	.	.	.	.	.
!	!	!	!	!	!	!	!	!	!	!	!	!	!	!	!	!
8G\	.	.	16g/LL	.	16b-\LL	.	.	.	4r	.	.	.	.	.	.	.
.	.	.	16a/	.	16cc\	.	.	.	.	.	.	.	.	.	.	.
8G\	.	.	16b-/	.	16dd\	.	.	.	.	.	.	.	.	.	.	.
.	.	.	16cc/JJ	.	16ee\JJ	.	.	.	.	.	.	.	.	.	.	.
!	!	!	!	!	!	!	!	!	!LO:LB:g=original	!	!	!	!	!	!	!
8G\	.	.	4a/	.	4ff\	.	.	.	8f\	Si-	.	.	.	.	.	.
8F\J	.	.	.	.	.	.	.	.	8f\	-cut	.	.	.	.	.	.
=71	=71	=71	=71	=71	=71	=71	=71	=71	=71	=71	=71	=71	=71	=71	=71	=71
8D\L	.	.	8a/L	.	16ff\LL	.	2.r	.	16f\	Te-	2.r	.	2.r	.	2.ryy	2.ryy
.	.	.	.	.	16gg\	.	.	.	16d\	-ne-	.	.	.	.	.	.
8D\	n6	.	8g/J	.	16ff\	.	.	.	8B-\	-br(ae)	.	.	.	.	.	.
.	.	.	.	.	16gg\JJ	.	.	.	.	.	.	.	.	.	.	.
8D\	.	.	4g/	.	(4ff\	.	.	.	4B-\	e-	.	.	.	.	.	.
8G\J	n	.	.	.	.	.	.	.	.	.	.	.	.	.	.	.
4C/	.	.	4g/	.	4ee\)	.	.	.	4c\	-jus	.	.	.	.	.	.
=72	=72	=72	=72	=72	=72	=72	=72	=72	=72	=72	=72	=72	=72	=72	=72	=72
8r	.	.	8e/	.	8g\L	.	2.r	.	4B-\	i-	2.r	.	2.r	.	2.ryy	2.ryy
8C/L	-7	.	4g/	.	16ee\L	.	.	.	.	.	.	.	.	.	.	.
.	.	.	.	.	16ff\JJ	.	.	.	.	.	.	.	.	.	.	.
8E\	.	.	.	.	8gg\L	.	.	.	4B-\	-ta	.	.	.	.	.	.
8C\	.	.	4g/	.	8ee\J	.	.	.	.	.	.	.	.	.	.	.
8D\	.	.	.	.	4b-\	.	.	.	4B-\	(et)	.	.	.	.	.	.
8E\J	.	.	8g/	.	.	.	.	.	.	.	.	.	.	.	.	.
=73	=73	=73	=73	=73	=73	=73	=73	=73	=73	=73	=73	=73	=73	=73	=73	=73
8F\L	.	.	8f/L	.	8a\L	.	2.r	.	16A\LL	lu-	2.r	.	2.r	.	2.ryy	2.ryy
.	.	.	.	.	.	.	.	.	16c\JJ	.	.	.	.	.	.	.
8BB-\J	6	.	8g/	.	8b-\	.	.	.	16B-\LL	-men	.	.	.	.	.	.
.	.	.	.	.	.	.	.	.	16G\JJ	.	.	.	.	.	.	.
4C/	4	.	8f/	.	8a\	.	.	.	4F/	e-	.	.	.	.	.	.
.	.	.	8f/	.	8a\	.	.	.	.	.	.	.	.	.	.	.
4C/	7	.	8e/	.	8g\	.	.	.	4E/	.	.	.	.	.	.	.
.	.	.	8e/J	.	8g\J	.	.	.	.	.	.	.	.	.	.	.
=74	=74	=74	=74	=74	=74	=74	=74	=74	=74	=74	=74	=74	=74	=74	=74	=74
4FF/	.	.	4A/	.	4f/	.	2.r	.	4F/	-jus	2.r	.	2.r	.	2.ryy	2.ryy
4r	.	.	4r	.	4r	.	.	.	4f\	Lu-	.	.	.	.	.	.
8r	.	.	8r	.	8r	.	.	.	4f\	-men	.	.	.	.	.	.
!	!	!	!	!	!	!	!	!	!	!	!	!	!	!	!	!
!	!	!	!	!LO:DY:b:t=f&colon;	!	!	!	!	!	!	!	!	!	!	!	!
16F`\LL	.	.	16f/LL	f	16f/LL	.	.	.	.	.	.	.	.	.	.	.
!	!	!	!	!	!	!	!	!	!	!	!	!	!	!	!	!
!	!	!	!	!	!	!	!	!	!	!	!	!	!	!	!	!
!	!	!LO:DY:b:t=for&colon;	!	!	!	!	!	!	!	!	!	!	!	!	!	!
16G`\JJ	.	f	16g/JJ	.	16g/JJ	.	.	.	.	.	.	.	.	.	.	.
!	!	!	!	!	!LO:LB:g=original	!	!	!	!	!	!	!	!	!	!	!
=75	=75	=75	=75	=75	=75	=75	=75	=75	=75	=75	=75	=75	=75	=75	=75	=75
!	!	!	!	!	!	!	!	!	!	!	!	!	!	!	!	!
8A`\L	.	.	8a/L	.	8a/L	.	2.r	.	4f\	e	2.r	.	2.r	.	2.ryy	2.ryy
!	!	!	!	!	!	!	!	!	!	!	!	!	!	!	!	!
!	!	!LO:DY:b:t=p&colon;	!	!	!	!	!	!	!	!	!	!	!	!	!	!
8F`\	.	p	8f/	.	8f/	.	.	.	.	.	.	.	.	.	.	.
!	!	!	!	!	!	!	!	!	!	!	!	!	!	!	!	!
8D`\	.	.	8d/	.	8d/	.	.	.	2GT/	.	.	.	.	.	.	.
!	!	!	!	!	!	!	!	!	!	!	!	!	!	!	!	!
8BBn`\J	.	.	8Bn/J	.	8Bn/J	.	.	.	.	.	.	.	.	.	.	.
4C;\	.	.	8c/	.	4c;/	.	.	.	.	.	.	.	.	.	.	.
.	.	.	8r;	.	.	.	.	.	.	.	.	.	.	.	.	.
!	!	!	!LO:LB:g=original	!	!	!	!	!	!LO:LB:g=original	!	!LO:LB:g=original	!	!	!	!	!
=76	=76	=76	=76	=76	=76	=76	=76	=76	=76	=76	=76	=76	=76	=76	=76	=76
!LO:TX:t=T&colon;	!	!	!	!	!	!	!	!	!	!	!	!	!	!	!	!
!LO:TX:t=P:problem=mixedbeam	!	!	!	!	!	!	!	!	!LO:TX:t=P:problem=nieczytelny zapis	!	!	!	!	!	!	!
!	!	!	!	!	!	!LO:DY:t=f&colon;	!	!	!	!	!	!	!	!	!	!
8F\L	.	.	8f/L	.	8f/L	f	2.r	.	2.r	.	8r	.	8r	.	2.ryy	2.ryy
8BB-/	.	.	8d/J	.	8d/J	.	.	.	.	.	8d\	Qui-	8b-\	-Qui-	.	.
!	!	!	!	!LO:DY:t=f&colon;	!	!	!	!	!	!	!	!	!	!	!	!
8D/	.	.	4b-\	f	4b-\	.	.	.	.	.	8f\	-a	8b-\	-a	.	.
!LO:TX:t=P:problem=łamanie linii w takcie	!	!	!	!	!	!	!	!	!	!	!	!	!	!	!	!
8F/J	.	.	.	.	.	.	.	.	.	.	8d\	tu	8b-\	tu	.	.
!LO:LB:g=original	!	!	!	!	!	!	!	!	!	!	!	!	!	!	!	!
!	!	!	!	!	!	!	!	!	!	!	!	!	!	!	!	!
8B-\L	.	.	4b-\	.	4b-\	.	.	.	.	.	8d\	pos-	8b-\	Pos-	.	.
8BB-/J	.	.	.	.	.	.	.	.	.	.	8d\	-se-	8b-\	-se-	.	.
=77	=77	=77	=77	=77	=77	=77	=77	=77	=77	=77	=77	=77	=77	=77	=77	=77
4F\	.	.	8a\L	.	8a\L	.	4.F\	co-	4r	.	8c\	-dis-	8a\	-dis-	2.ryy	2.ryy
.	.	.	8b-\	.	8b-\	.	.	.	.	.	8d\	-ti	8b-\	-ti	.	.
8r	.	.	8cc\	.	8cc\	.	.	.	8A\	Con-	8f\	re-	8cc\	re-	.	.
8F\L	.	.	8dd\J	.	8dd\J	.	8F\	-fi-	8B-\	-fi-	8f\	-nes	8dd\	-nes	.	.
8F\	.	.	4ee-X\	.	4ee-X\	.	8F\	-te-	8c\	-te-	4f\	me-	4ee-X\	me-	.	.
8F\J	.	.	.	.	.	.	8F\	-bor	8c\	-bor	.	.	.	.	.	.
=78	=78	=78	=78	=78	=78	=78	=78	=78	=78	=78	=78	=78	=78	=78	=78	=78
!	!	!	!	!	!LO:TX:a:t=t&colon;	!	!	!	!	!	!	!	!	!	!	!
4BB-/	.	.	8.dd\L	.	8.dd\L	.	8BB-/	ti-	8c\	ti-	4f\	-os	4dd\	-os	2.ryy	2.ryy
.	.	.	.	.	.	.	8BB-/	-bi	8B-\	-bi	.	.	.	.	.	.
.	.	.	32cc\LL	.	32cc\LL	.	.	.	.	.	.	.	.	.	.	.
.	.	.	32dd\JJJ	.	32dd\JJJ	.	.	.	.	.	.	.	.	.	.	.
4B-\	.	.	4dd\	.	4dd\	.	8B-\	qui-	8B-\	qui-	8f\	Sus-	8dd\	Sus-	.	.
.	.	.	.	.	.	.	8B-\	-a	8B-\	-a	8f\	-ce-	8dd\	-ce-	.	.
4B-\	.	.	4dd\	.	4dd\	.	8B-\	ter-	8d\	Ter-	8f\	-pis-	8dd\	-pis-	.	.
!	!	!	!	!	!	!	!	!	!	!	!LO:N:vis=4	!	!	!	!	!
.	.	.	.	.	.	.	8B-\	-ri-	8d\	-ri-	8f\	-ti	8dd\	-ti	.	.
=79	=79	=79	=79	=79	=79	=79	=79	=79	=79	=79	=79	=79	=79	=79	=79	=79
4B-\	n4 #2	.	8cc#X\	.	8cc#X\	.	16B-\	-bi-	16en\	-bi-	8g\	me	8cc#X\	me	2.ryy	2.ryy
.	.	.	.	.	.	.	16B-\	-li-	16e\	-li-	.	.	.	.	.	.
.	.	.	4cc#\	.	4cc#\	.	8B-\	-ter	8e\	-ter	8g\	de	8cc#\	de	.	.
4A\	.	.	.	.	.	.	4A\	ma-	4e\	Ma-	8a\	u-	16cc#\	u-	.	.
.	.	.	.	.	.	.	.	.	.	.	.	.	16cc#\	-te-	.	.
!	!	!	!	!	!	!	!	!	!	!	!	!	!	!	!	!
.	.	.	4cc#\	.	4cc#\	.	.	.	.	.	16a\	-te-	8cc#\	-ro	.	.
!	!	!	!	!	!	!	!	!	!	!	!	!	!LO:LB:g=original	!	!	!
.	.	.	.	.	.	.	.	.	.	.	16a\	-ro	.	.	.	.
4G\	.	.	.	.	.	.	8G\	-gni-	8e\	-gni-	8a\	ma-	8cc#\	Ma-	.	.
.	.	.	8cc#\	.	8cc#\	.	8G\	-fi-	8e\	-fi-	8a\	-tris	8cc#\	-tris	.	.
!	!	!	!	!	!	!	!	!	!LO:LB:g=original	!	!	!	!	!	!	!
=80	=80	=80	=80	=80	=80	=80	=80	=80	=80	=80	=80	=80	=80	=80	=80	=80
4F\	6	.	4dd\	.	4dd\	.	8F\	-ca-	8d\	-ca-	4a\	me-	4dd\	Me-	2.ryy	2.ryy
.	.	.	.	.	.	.	8F\	-tus	8d\	-tus	.	.	.	.	.	.
!	!	!	!	!	!	!	!LO:TX:t=P:problem=brak reszty taktu	!	!	!	!	!	!	!	!	!
4D\	.	.	16d/LL	.	16d/LL	.	2ryy	.	4d\	es	4a\	-(ae)	4dd\	-a	.	.
.	.	.	16f/	.	16f/	.	.	.	.	.	.	.	.	.	.	.
.	.	.	16a/	.	16a/	.	.	.	.	.	.	.	.	.	.	.
.	.	.	16dd/JJ	.	16dd/JJ	.	.	.	.	.	.	.	.	.	.	.
.	.	.	8qqff/	.	8qqff/	.	.	.	.	.	.	.	.	.	.	.
8G\L	6	.	8ee\L	.	8ee\L	.	.	.	4r	.	4r	.	4r	.	.	.
8A\J	#	.	16dd\L	.	16dd\L	.	.	.	.	.	.	.	.	.	.	.
.	.	.	16cc#X\JJ	.	16cc#X\JJ	.	.	.	.	.	.	.	.	.	.	.
!	!	!	!	!	!	!	!	!	!	!	!LO:LB:g=original	!	!	!	!	!
!	!	!	!	!	!	!	!LO:LB:g=original	!	!	!	!	!	!	!	!	!
=81	=81	=81	=81	=81	=81	=81	=81	=81	=81	=81	=81	=81	=81	=81	=81	=81
!	!	!	!	!	!	!	!LO:TX:a:t=6	!	!	!	!	!	!LO:TX:a:t=6	!	!	!
4D\	.	.	4dd\	.	4dd\	.	2.r	.	4r	.	2.r	.	2.r	.	2.ryy	2.ryy
4r	.	.	4r	.	4r	.	.	.	4A/	Mi-	.	.	.	.	.	.
!LO:TX:t=S&colon;	!	!	!	!	!	!	!	!	!	!	!	!	!	!	!	!
!	!	!	!	!LO:DY:b:t=p&colon;	!	!LO:DY:t=p&colon;	!	!	!	!	!	!	!	!	!	!
4F\	.	.	4a/	p	4dd\	p	.	.	4A/	-ra-	.	.	.	.	.	.
!	!	!	!LO:LB:g=original	!	!	!	!	!	!	!	!	!	!	!	!	!
=82	=82	=82	=82	=82	=82	=82	=82	=82	=82	=82	=82	=82	=82	=82	=82	=82
4G\	.	.	4b-/	.	4dd\	.	2.r	.	16B-\	-bi-	2.r	.	2.r	.	2.ryy	2.ryy
.	.	.	.	.	.	.	.	.	16A\	-li-	.	.	.	.	.	.
.	.	.	.	.	.	.	.	.	8G/	-a	.	.	.	.	.	.
8G\L	6	.	4b-/	.	8.ee\L	.	.	.	8.e\	O-	.	.	.	.	.	.
8G\	5	.	.	.	.	.	.	.	.	.	.	.	.	.	.	.
.	.	.	.	.	16dd\Jk	.	.	.	16d\	-pe-	.	.	.	.	.	.
8A\	#	.	4e/	.	4cc#X\	.	.	.	4c#X\	-ra	.	.	.	.	.	.
8G\J	.	.	.	.	.	.	.	.	.	.	.	.	.	.	.	.
!	!	!	!	!	!LO:LB:g=original	!	!	!	!	!	!	!	!	!	!	!
=83	=83	=83	=83	=83	=83	=83	=83	=83	=83	=83	=83	=83	=83	=83	=83	=83
8F\L	6	.	4a/	.	8dd\L	.	2.r	.	8d\L	tu-	2.r	.	2.r	.	2.ryy	2.ryy
8E\J	6	.	.	.	8cc#X\J	.	.	.	8c#X\J	.	.	.	.	.	.	.
4D\	.	.	4f/	.	4dd\	.	.	.	4d\	-a	.	.	.	.	.	.
8r	.	.	4f/	.	4a/	.	.	.	4f\	(et)	.	.	.	.	.	.
8D\	.	.	.	.	.	.	.	.	.	.	.	.	.	.	.	.
!LO:LB:g=original	!	!	!	!	!	!	!	!	!	!	!	!	!	!	!	!
=84	=84	=84	=84	=84	=84	=84	=84	=84	=84	=84	=84	=84	=84	=84	=84	=84
4G\	9 7	.	4f/	.	4a/	.	2.r	.	(4f\	a-	2.r	.	2.r	.	2.ryy	2.ryy
4G\	8 6	.	8e/L	.	8g/L	.	.	.	8e\L)	-ni-	.	.	.	.	.	.
!	!	!	!	!	!	!	!	!	!	!	!	!	!	!	!	!
.	.	.	8c#X/J	.	8e/	.	.	.	8c#X\J	.	.	.	.	.	.	.
!	!	!	!	!	!	!	!	!	!LO:LB:g=original	!	!	!	!	!	!	!
4G\	.	.	8d/L	.	8f/	.	.	.	8d\L	-ma	.	.	.	.	.	.
.	.	.	8e/J	.	8g/J	.	.	.	8e\J	.	.	.	.	.	.	.
=85	=85	=85	=85	=85	=85	=85	=85	=85	=85	=85	=85	=85	=85	=85	=85	=85
4C#X/	.	.	4e/	.	4g/	.	2.r	.	4e\	me-	2.r	.	2.r	.	2.ryy	2.ryy
!	!	!	!	!	!LO:N:vis=4	!	!	!	!	!	!	!	!	!	!	!
4D/	.	.	4d/	.	8f/L	.	.	.	4d\	-a	.	.	.	.	.	.
.	.	.	.	.	8a/	.	.	.	.	.	.	.	.	.	.	.
8r	.	.	4f/	.	8dd/	.	.	.	4f\	Co-	.	.	.	.	.	.
8D\	.	.	.	.	8a/J	.	.	.	.	.	.	.	.	.	.	.
=86	=86	=86	=86	=86	=86	=86	=86	=86	=86	=86	=86	=86	=86	=86	=86	=86
.	.	.	.	.	.	.	.	.	8qqe/	.	.	.	.	.	.	.
4G\	7:6	.	4f/	.	4a/	.	2.r	.	2e\	-gno-	2.r	.	2.r	.	2.ryy	2.ryy
4A\	#	.	4e/	.	4g/	.	.	.	.	.	.	.	.	.	.	.
4B-\	.	.	4d/	.	4f/	.	.	.	4d\	-scit	.	.	.	.	.	.
=87	=87	=87	=87	=87	=87	=87	=87	=87	=87	=87	=87	=87	=87	=87	=87	=87
!	!	!	!	!	!	!	!	!	!	!	!	!	!	!	!	!
8A\L	4	.	4d/	.	4f/	.	4r	.	4d\	ni-	4r	.	4r	.	2.ryy	2.ryy
8AA/	.	.	.	.	.	.	.	.	.	.	.	.	.	.	.	.
!	!	!	!LO:TX:t=P:problem=mixed beam	!	!LO:TX:t=P:problem=mixed beam	!	!	!	!	!	!	!	!	!	!	!
!	!	!	!	!LO:DY:t=f&colon;	!	!LO:DY:t=f&colon;	!	!	!	!	!	!	!	!	!	!
8AA/	#	.	8c#X/L	f	8e/L	f	8r	.	4c#X\	-mis	8r	.	8r	.	.	.
8AA/	.	.	8ee\	.	8ee/	.	8c#X/	non	.	.	8a\	non	8ee\	Non	.	.
!LO:TX:a:t=T&colon;	!	!	!	!	!	!	!	!	!	!	!	!	!	!	!	!
8C#X/	.	.	8a\	.	8a/	.	8c#\	est	4r	.	8a\	est	8a\	est	.	.
8AA/J	.	.	8ee\J	.	8ee/J	.	16c#\	oc-	.	.	16a\	o-	16ee\	oc-	.	.
.	.	.	.	.	.	.	16c#\	-cul-	.	.	16a\	-cul-	16ee\	-cul-	.	.
=88	=88	=88	=88	=88	=88	=88	=88	=88	=88	=88	=88	=88	=88	=88	=88	=88
4D\	.	.	8ff\L	.	8ff\L	.	4d\	-ta-	2.r	.	8a\	-ta-	(8ff\	-ta-	2.ryy	2.ryy
.	.	.	8ee\J	.	8ee\J	.	.	.	.	.	8a\	-tum	8ee\)	.	.	.
4r	.	.	4dd\	.	4dd\	.	4D\	-tum	.	.	2a\	os	4dd\	-tum	.	.
4F#X\	6:5	.	8aa\L	.	8aa\L	.	4F#X\	os	.	.	.	.	4cc\	Os	.	.
.	.	.	8cc\J	.	8cc\J	.	.	.	.	.	.	.	.	.	.	.
=89	=89	=89	=89	=89	=89	=89	=89	=89	=89	=89	=89	=89	=89	=89	=89	=89
4G\	4:3	.	4cc\	.	4cc\	.	4G\	me-	8d\	Im-	4a\	me-	4cc\	me-	2.ryy	2.ryy
.	.	.	.	.	.	.	.	.	8d\	-per-	.	.	.	.	.	.
4GG/	.	.	4b-\	.	4b-\	.	4G\	-um	8d\	-fe-	4g\	-um	4b-\	-um	.	.
.	.	.	.	.	.	.	.	.	8d\	-ctum	.	.	.	.	.	.
8r	.	.	8gg\L	.	8gg\L	.	4G\	a	8c\	me-	4r	.	4b-\	a	.	.
8E\	.	.	8b-\J	.	8b-\J	.	.	.	8c\	-um	.	.	.	.	.	.
=90	=90	=90	=90	=90	=90	=90	=90	=90	=90	=90	=90	=90	=90	=90	=90	=90
.	.	.	.	.	8qqb-/	.	.	.	.	.	.	.	.	.	.	.
8Fn\L	4	.	8b-\	.	4a\	.	4F\	te	8r	.	4r	.	4a\	te	2.ryy	2.ryy
8F\	3	.	4a/	.	.	.	.	.	8f\	Vi-	.	.	.	.	.	.
8F\	.	.	.	.	4cc\	.	8F\	quod	8f\	-de-	4a\	mi-	8cc\	quod	.	.
!	!	!	!	!	!	!	!	!	!	!	!	!	!	!	!	!
8F\	.	.	4cc/	.	.	.	8F\	fe-	8f\	-runt	.	.	8cc\	fe-	.	.
!	!	!	!	!	!	!	!	!	!LO:LB:g=original	!	!	!	!	!	!	!
8F\	6	.	.	.	4dd\	.	8F\	-ci-	16f\	oc-	4b-\	-hi	8dd\	-ci-	.	.
.	.	.	.	.	.	.	.	.	16f\	-cu-	.	.	.	.	.	.
8F\J	2|	.	8dd\	.	.	.	8F\	-sti	8f\	-li	.	.	8dd\	-sti	.	.
!LO:LB:g=original	!	!	!LO:LB:g=original	!	!	!	!	!	!	!	!	!	!	!	!	!
=91	=91	=91	=91	=91	=91	=91	=91	=91	=91	=91	=91	=91	=91	=91	=91	=91
8F\L	6 4	.	8dd\L	.	8dd\L	.	8F\	in	8B-\	tu-	8f\	au-	8dd\	in	2.ryy	2.ryy
8F\	5	.	8cc\	.	8cc\	.	8F\	oc-	8A\	-i	8f\	-tem	8cc\	oc-	.	.
8F\	7 2	.	8ee\	.	8ee\	.	8F\	-cul-	8B-\	(et)	8g\	ni-	8ee\	-cul-	.	.
8F\	.	.	8gg\	.	8gg\	.	8F\	-to	8B-\	in	8g\	-mis	8ee\	-to	.	.
8F\	.	.	8bb-\	.	8bb-\	.	4r	.	8B-\	li-	16g\	ho-	8ee\	et	.	.
.	.	.	.	.	.	.	.	.	.	.	16g\	-no-	.	.	.	.
8F\J	.	.	8ee\J	.	8ee\J	.	.	.	8B-\	-bro	16g\	-ri-	8ee\	Sub-	.	.
.	.	.	.	.	.	.	.	.	.	.	16g\	-fi-	.	.	.	.
!	!	!	!	!	!	!	!	!	!	!	!LO:LB:g=original	!	!LO:LB:g=original	!	!	!
!	!	!	!	!	!LO:LB:g=original	!	!	!	!	!	!	!	!	!	!	!
=92	=92	=92	=92	=92	=92	=92	=92	=92	=92	=92	=92	=92	=92	=92	=92	=92
8F\L	8	.	4ff\	.	4ff\	.	2.r	.	8c\	tu-	8a\	-ca-	8ff\	-stan-	2.ryy	2.ryy
8F\	.	.	.	.	.	.	.	.	8c\	-o	8a\	-ti	16ff\	-ti-	.	.
.	.	.	.	.	.	.	.	.	.	.	.	.	16ff\	-a	.	.
8D\	.	.	8ff\L	.	8ff\L	.	.	.	8d\	om-	8a\	sunt	8ff\	me-	.	.
8D\	.	.	8dd\	.	8dd\	.	.	.	16d\	-nes	8f\	a-	8dd\	-a	.	.
.	.	.	.	.	.	.	.	.	16d\	Scri-	.	.	.	.	.	.
8D\	n6	.	8bn\	.	8bn\	.	.	.	4d\	-ben-	8f\	-mi-	8.bn\	in	.	.
8D\J	5	.	8a\J	.	8a\J	.	.	.	.	.	8f\	-ci	.	.	.	.
.	.	.	.	.	.	.	.	.	.	.	.	.	16a\	in-	.	.
=93	=93	=93	=93	=93	=93	=93	=93	=93	=93	=93	=93	=93	=93	=93	=93	=93
8D\L	#4 2|	.	4g#X/	.	4g#X/	.	2.r	.	4Bn\	-tur	8f\	tu-	8g#X\	-fe-	2.ryy	2.ryy
8D\	.	.	.	.	.	.	.	.	.	.	8f\	-i	8g#\	-ri-	.	.
!	!	!	!	!	!	!	!	!	!	!	!	!	!	!	!	!
8C\	6	.	8a/L	.	8a/L	.	.	.	8c\	di-	(8e\L	De-	8a\	-o-	.	.
!	!	!	!	!	!	!	!	!	!	!	!	!	!	!	!	!
8D\J	.	.	16aa\L	.	16g#/L	.	.	.	8c\	-es	8f\J)	.	16a\	-ri-	.	.
.	.	.	16a/JJ	.	16a/JJ	.	.	.	.	.	.	.	16a\	-bus	.	.
!	!	!	!	!	!	!	!	!	!LO:LB:g=original	!	!	!	!	!	!	!
4E\	#4r	.	8a/L	.	8a/L	.	.	.	8Bn\	for-	4e\	-us	8a\L	ter-	.	.
.	.	.	8g#X/J	.	8g#X/J	.	.	.	8B\	-ma-	.	.	8g#X\J	.	.	.
=94	=94	=94	=94	=94	=94	=94	=94	=94	=94	=94	=94	=94	=94	=94	=94	=94
4AA/	.	.	8c/	.	8.ee\L	.	2.r	.	8c\	-bun-	4e\	ni-	4a\	-r(ae)	2.ryy	2.ryy
.	.	.	4cc\	.	.	.	.	.	8A\	-tur	.	.	.	.	.	.
.	.	.	.	.	16cc\K	.	.	.	.	.	.	.	.	.	.	.
4AA/	.	.	.	.	8a\	.	.	.	4e\	(et)	4a\	-mis	4r	.	.	.
.	.	.	8cc\	.	8aa\	.	.	.	.	.	.	.	.	.	.	.
4AA/	7:6 5:4	.	8ee\L	.	8gg\	.	.	.	8e\	ne-	8g\	con-	4r	.	.	.
.	.	.	8dd\J	.	8ff\J	.	.	.	16d\	-mo	8f\	-for-	.	.	.	.
.	.	.	.	.	.	.	.	.	16d\	in	.	.	.	.	.	.
=95	=95	=95	=95	=95	=95	=95	=95	=95	=95	=95	=95	=95	=95	=95	=95	=95
!	!	!	!	!	!LO:N:vis=4	!	!	!	!	!	!	!	!LO:TX:a:t=3	!	!	!
.	.	.	.	.	8qqee/	.	.	.	.	.	.	.	.	.	.	.
8AA/L	.	.	4dd\	.	4.ee\	.	2.r	.	4d\	e-	8f\	-ta-	2.r	.	2.ryy	2.ryy
8A\J	5	.	.	.	.	.	.	.	.	.	8e\	-tus	.	.	.	.
!	!	!LO:DY:t=p&colon;	!	!LO:DY:t=p&colon;	!	!	!	!	!	!	!	!	!	!	!	!
4AA/	.	p	8cc\L	p	.	.	.	.	4c\	-is	8e\	est	.	.	.	.
!	!	!	!	!	!	!LO:DY:t=p&colon;	!	!	!	!	!	!	!	!	!	!
.	.	.	8ee\	.	8ccc\L	p	.	.	.	.	8bn\	prin-	.	.	.	.
4D\	6:5	.	8dd\	.	8bbn\	.	.	.	4f\	in	8b\	-ci-	.	.	.	.
!	!	!	!	!	!	!	!	!	!	!	!LO:TX:t=P:problem=niepełny takt	!	!	!	!	!
.	.	.	8cc\J	.	8aa\J	.	.	.	.	.	8ryy	.	.	.	.	.
=96	=96	=96	=96	=96	=96	=96	=96	=96	=96	=96	=96	=96	=96	=96	=96	=96
!	!	!	!	!	!	!	!	!	!	!	!	!	!	!	!	!
4E\	#4r	.	8cc\L	.	8aa\L	.	2.r	.	8e\L	e-	8a\	-pa-	2.r	.	2.ryy	2.ryy
!	!	!	!	!	!	!	!	!	!	!	!LO:LB:g=original	!	!	!	!	!
.	.	.	16b-\L	.	16gg#X\L	.	.	.	16B-\L	.	16g#X\	-tus	.	.	.	.
.	.	.	16cc\JJ	.	16aa\JJ	.	.	.	16c\JJ	.	16a\	e-	.	.	.	.
8r	.	.	8dd\L	.	16bbn\LL	.	.	.	2d\	.	2bn\	-o-	.	.	.	.
.	.	.	.	.	16aa\	.	.	.	.	.	.	.	.	.	.	.
8G#X\L	.	.	8bn\	.	16gg#X\	.	.	.	.	.	.	.	.	.	.	.
.	.	.	.	.	16ff\JJ	.	.	.	.	.	.	.	.	.	.	.
8G#\	.	.	8b\	.	16ee\LL	.	.	.	.	.	.	.	.	.	.	.
.	.	.	.	.	16dd\	.	.	.	.	.	.	.	.	.	.	.
8G#\J	.	.	8b\J	.	16cc\	.	.	.	.	.	.	.	.	.	.	.
.	.	.	.	.	16bn\JJ	.	.	.	.	.	.	.	.	.	.	.
=97	=97	=97	=97	=97	=97	=97	=97	=97	=97	=97	=97	=97	=97	=97	=97	=97
!LO:TX:b:i:t=Tutti&colon;	!	!	!	!	!	!	!	!	!	!	!	!	!	!	!	!
4A\	.	.	4e/	.	8cc\L	.	8A\	Si	4c\	-is	8a\	-rum	2.r	.	2.ryy	2.ryy
.	.	.	.	.	8a\J	.	8G\	oc-	.	.	8a\	Di-	.	.	.	.
!	!	!	!	!LO:DY:t=f&colon;	!	!LO:DY:b:t=f&colon;	!	!	!	!	!	!	!	!	!	!
8Gn\L	# 2	.	8e/	f	8cc#X\L	f	8G\	-ci-	4r	.	8a\	-nu-	.	.	.	.
8G\	-	.	4e/	.	8bb-X\J	.	16G\	-de-	.	.	8e\	-me-	.	.	.	.
.	.	.	.	.	.	.	16G\	-ris	.	.	.	.	.	.	.	.
8G\	2| 3	.	.	.	8cc#\L	.	8G\	De-	4r	.	8e\	-ra-	.	.	.	.
8G\J	.	.	8e/	.	16dd\L	.	8G\	-us	.	.	8e\	-bo	.	.	.	.
.	.	.	.	.	16ee\JJ	.	.	.	.	.	.	.	.	.	.	.
!LO:LB:g=original	!	!	!LO:LB:g=original	!	!LO:LB:g=original	!	!	!	!	!	!	!	!	!	!	!
=98	=98	=98	=98	=98	=98	=98	=98	=98	=98	=98	=98	=98	=98	=98	=98	=98
8F\L	6	.	8a/L	.	16dd\LL	.	8F\	pec-	4r	.	8f\	e-	(4dd\	Vi-	2.ryy	2.ryy
.	.	.	.	.	16a\	.	.	.	.	.	.	.	.	.	.	.
8F\	.	.	8a/	.	16f\	.	8F\	-ca-	.	.	8a\	-os	.	.	.	.
.	.	.	.	.	16d\JJ	.	.	.	.	.	.	.	.	.	.	.
8F\	4_ 2	.	8d/	.	8bn\L	.	8F\	-to-	4r	.	4d\	et	8bn\)	.	.	.
8F\	x 3	.	8d/	.	8aa\J	.	8F\	-res	.	.	.	.	8b\	-ri	.	.
8F\	.	.	8d/	.	8b\L	.	8F\	vi-	8G/	Vi-	8d\	Su-	8b\	San-	.	.
8F\J	2	.	8d/J	.	16cc\L	.	8F\	-ri	8G/	-ri	16d\	-per	8b\	-gui-	.	.
.	.	.	.	.	16dd\JJ	.	.	.	.	.	16d\	a-	.	.	.	.
!	!	!	!	!	!	!	!	!	!LO:LB:g=original	!	!	!	!	!	!	!
=99	=99	=99	=99	=99	=99	=99	=99	=99	=99	=99	=99	=99	=99	=99	=99	=99
8E\L	6	.	8g/L	.	16cc/LL	.	8E\	san-	16G/	San-	8g\	-re-	8cc\	-n(um)	2.ryy	2.ryy
.	.	.	.	.	16g/	.	.	.	16c\	-gui-	.	.	.	.	.	.
8E\J	.	.	8g/J	.	16e/	.	16E\	-gui-	8c\	-n(um)	8g\	-nam	16cc\	dec-	.	.
.	.	.	.	.	16c/JJ	.	16E\	-n(um)	.	.	.	.	16cc\	-li-	.	.
!	!	!LO:DY:a:t=p&colon;	!	!LO:DY:b:t=p&colon;	!	!LO:DY:t=p&colon;	!	!	!	!	!	!	!	!	!	!
4C\	.	p	2g/	p	4cc\	p	8C/	de-	8c\	dec-	8g\	Mul-	4cc\	-na-	.	.
.	.	.	.	.	.	.	8C/	-cli-	8c\	-li-	16g\	-ti-	.	.	.	.
!	!	!	!	!	!	!	!	!	!	!	!	!	!	!	!	!
.	.	.	.	.	.	.	.	.	.	.	16g\	-pli-	.	.	.	.
!	!	!	!	!	!	!	!	!	!	!	!LO:LB:g=original	!	!LO:LB:g=original	!	!	!
4C\	-7	.	.	.	4b-X\	.	8C/	-na-	8c\	-na-	4g\	-ca-	8b-\	-te	.	.
.	.	.	.	.	.	.	16C/	-te	16c\	-te	.	.	8b-\	a	.	.
.	.	.	.	.	.	.	16C/	a	16c\	a	.	.	.	.	.	.
=100	=100	=100	=100	=100	=100	=100	=100	=100	=100	=100	=100	=100	=100	=100	=100	=100
4F\	.	.	8g/L	.	8b-\L	.	4F\	me	4c\	me	8g\L	-bun-	(8b-\L	me	2.ryy	2.ryy
.	.	.	8f/J	.	8a\J	.	.	.	.	.	8f\J	.	8a\J)	.	.	.
4C\	.	.	2g/	.	8.cc\L	.	4C\	qui-	4e\	qui-	4g\	-tur	4cc\	qui-	.	.
.	.	.	.	.	16aa\K	.	.	.	.	.	.	.	.	.	.	.
4C\	-7	.	.	.	8b-\	.	4C\	-a	4e\	-a	8g\	ex-	4b-\	-a	.	.
.	.	.	.	.	8gg\J	.	.	.	.	.	8g\	-ur-	.	.	.	.
!	!	!	!	!	!	!	!LO:LB:g=original	!	!	!	!	!	!	!	!	!
=101	=101	=101	=101	=101	=101	=101	=101	=101	=101	=101	=101	=101	=101	=101	=101	=101
4F\	.	.	8g/L	.	8b-\L	.	8.F\	di-	8.c\	di-	8g\L	-re-	16b-\	di-	2.ryy	2.ryy
.	.	.	.	.	.	.	.	.	.	.	.	.	16a\	-ci-	.	.
.	.	.	8f/J	.	8a\J	.	.	.	.	.	8f\J	.	8a\	-tis	.	.
.	.	.	.	.	.	.	16F\	-ci-	16c\	-ci-	.	.	.	.	.	.
!LO:TX:a:t=T&colon;	!	!	!	!	!	!	!	!	!	!	!	!	!	!	!	!
!	!	!	!	!LO:DY:b:t=f&colon;	!	!	!	!	!	!	!	!	!	!	!	!
4D\	.	.	4a/	f	4ff\	.	8D\	-tis	8c\	-tis	8f\	-xi	8r	.	.	.
.	.	.	.	.	.	.	8D\	in	8c\	in	16f\	et	8a\	in	.	.
.	.	.	.	.	.	.	.	.	.	.	16f\	ad-	.	.	.	.
!	!	!	!	!	!	!LO:DY:t=f&colon;	!	!	!	!	!	!	!	!	!	!
4BBn\	.	.	4a/	.	4ff\	f	8BBn\	co-	8c\	co-	8f\	-huc	8a\	Co-	.	.
.	.	.	.	.	.	.	8BB\	-gi-	8c\	-gi-	8f\	sum	8a\	-gi-	.	.
=102	=102	=102	=102	=102	=102	=102	=102	=102	=102	=102	=102	=102	=102	=102	=102	=102
8C/L	-5 4:3	.	8a/L	.	8ff\L	.	8C/	-ta-	8c\	-ta-	8f\L	te-	8a\	-ta-	2.ryy	2.ryy
8C/	.	.	8g/J	.	8ee\J	.	8C/	-ti-	8c\	-ti-	8e\J	.	8g\	-ti-	.	.
!	!	!	!	!	!	!	!	!	!	!	!	!	!	!	!	!
8C/	7	.	4gg\	.	4b-\	.	4C/	-o-	4c\	-o-	4e\	-cum	4b-\	-o-	.	.
8C/	.	.	.	.	.	.	.	.	.	.	.	.	.	.	.	.
!	!	!	!	!	!	!	!	!	!LO:LB:g=original	!	!	!	!	!	!	!
8C/	.	.	4g/	.	4b-\	.	8C/	-ne	8c\	-ne	4r	.	8b-\	-ne	.	.
8C/J	.	.	.	.	.	.	8C/	ac-	8G/	ac-	.	.	8b-\	ac-	.	.
=103	=103	=103	=103	=103	=103	=103	=103	=103	=103	=103	=103	=103	=103	=103	=103	=103
8C/L	7	.	8g/L	.	8b-\L	.	8C/	-ci-	8G/	-ci-	2.r	.	8b-\	-ci-	2.ryy	2.ryy
8C/	6 4	.	8f/J	.	8a\J	.	8C/	-pi-	8F/	-pi-	.	.	8a\	-pi-	.	.
8C/	.	.	4g/	.	4ee\	.	8C/	-ent	8G/	-ent	.	.	8cc\	-ent	.	.
8C/	.	.	.	.	.	.	8C/	in	8G/	in	.	.	8cc\	in	.	.
8C/	.	.	4g/	.	4ee\	.	8C/	va-	8G/	va-	.	.	8cc\	Va-	.	.
8C/J	.	.	.	.	.	.	8C/	-ni-	8G/	-ni-	.	.	8cc\	-ni-	.	.
=104	=104	=104	=104	=104	=104	=104	=104	=104	=104	=104	=104	=104	=104	=104	=104	=104
!	!	!	!	!	!	!	!	!	!	!	!	!	!	!	!	!
8C/L	-7	.	8d/L	.	8ff\	.	8C/	-ta-	4d\	-ta-	8f\	Non-	8bn\	-ta-	2.ryy	2.ryy
8C/	.	.	8bn\	.	4ff\	.	8C/	-te	.	.	8f\	-ne	8b\	-te	.	.
8C/	.	.	8d/	.	.	.	8C/	ci-	4d\	-te	8r	.	8b\	Ci-	.	.
!	!	!	!	!	!	!	!	!	!	!	!	!	!	!	!	!
8C/	.	.	8b\	.	4ff\	.	8C/	-vi-	.	.	8f\	qui	8b\	-vi-	.	.
!	!	!	!	!	!	!	!	!	!	!	!	!	!LO:LB:g=original	!	!	!
8C/	.	.	8d/	.	.	.	8C/	-ta-	4r	.	16f\	o-	8bn\	-ta-	.	.
.	.	.	.	.	.	.	.	.	.	.	16f\	-de-	.	.	.	.
8C/J	.	.	8b\J	.	8ff\	.	8C/	-tes	.	.	8f\	-runt	8b\	-te	.	.
!	!	!	!	!	!	!	!	!	!	!	!LO:LB:g=original	!	!	!	!	!
!LO:LB:g=original	!	!	!	!	!LO:LB:g=original	!	!LO:LB:g=original	!	!	!	!	!	!	!	!	!
=105	=105	=105	=105	=105	=105	=105	=105	=105	=105	=105	=105	=105	=105	=105	=105	=105
8C/L	-6 5	.	8e/L	.	8gg\	.	2C/	tu-	4r	.	4g\	te	4b-X\	tu-	2.ryy	2.ryy
8C/	.	.	8b-X/	.	4gg\	.	.	.	.	.	.	.	.	.	.	.
8C/	.	.	8e/	.	.	.	.	.	4r	.	8.g\	Do-	4b-\	-as.	.	.
8C/	.	.	8b-/	.	4gg\	.	.	.	.	.	.	.	.	.	.	.
.	.	.	.	.	.	.	.	.	.	.	16g\	-mi-	.	.	.	.
8C/	.	.	8e/	.	.	.	4C/	-as	4G/	(et)	4g\	-ne	4r	.	.	.
8C/J	.	.	8b-/J	.	8gg\	.	.	.	.	.	.	.	.	.	.	.
!	!	!	!LO:LB:g=original	!	!	!	!	!	!	!	!	!	!	!	!	!
=106	=106	=106	=106	=106	=106	=106	=106	=106	=106	=106	=106	=106	=106	=106	=106	=106
8C/L	-6 5	.	8a-X/L	.	4gg\	.	4r	.	2A-X/	Su-	8.g\	o-	4r	.	2.ryy	2.ryy
8C/	.	.	8A/	.	.	.	.	.	.	.	.	.	.	.	.	.
.	.	.	.	.	.	.	.	.	.	.	16f\	-de-	.	.	.	.
8C/	4	.	8a-/	.	4ff\	.	8r	.	.	.	8f\	-ram	8r	.	.	.
8C/	.	.	8A/	.	.	.	8C/	et	.	.	8f\	et	8cc\	et	.	.
8C/	.	.	8a-/	.	4ff\	.	8C/	Su-	4A-/	-per	8f\	su-	8cc\	Su-	.	.
8C/J	.	.	8A/J	.	.	.	8C/	-per	.	.	8f\	-per	8cc\	-per	.	.
=107	=107	=107	=107	=107	=107	=107	=107	=107	=107	=107	=107	=107	=107	=107	=107	=107
8BBn/L	-7	.	4a-X/	.	8ddd\L	.	8BBn/	i-	8d\	i-	8f\	i-	8a\	I-	2.ryy	2.ryy
8BB/	.	.	.	.	8ff\	.	8BB/	-ni-	8d\	-ni-	8f\	-ni-	8a\	-ni-	.	.
8BB/	.	.	4a-/	.	8ddd\	.	8BB/	-mi-	8d\	-mi-	8f\	-mi-	8a\	-mi-	.	.
!	!	!	!	!	!	!	!	!	!	!	!	!	!	!	!	!
8BB/	.	.	.	.	8ff\	.	8BB/	-cos	8d\	-cos	8f\	-cos	8a\	-cos	.	.
!	!	!	!	!	!	!	!	!	!LO:LB:g=original	!	!	!	!	!	!	!
8BB/	.	.	4a-/	.	8ddd\	.	8BB/	tu-	8d\	tu-	8f\	me-	16a\	tu-	.	.
.	.	.	.	.	.	.	.	.	.	.	.	.	16a\	-os	.	.
8BB/J	.	.	.	.	8ff\J	.	16BB/	-os	16d\	-os	16f\	-os	16a\	ta-	.	.
.	.	.	.	.	.	.	16BB/	ta-	16d\	ta-	16f\	ta-	16a\	-bes-	.	.
=108	=108	=108	=108	=108	=108	=108	=108	=108	=108	=108	=108	=108	=108	=108	=108	=108
8C/L	6 -4	.	4a-X/	.	4ff\	.	4C/	-bes-	4d\	-bes-	4f\	-bes-	4a-X\	-ce-	2.ryy	2.ryy
8C/	5 3	.	.	.	.	.	.	.	.	.	.	.	.	.	.	.
8C/	.	.	8.g/L	.	16ee/LL	.	4C/	-ce-	4d\	-ce-	4f\	-ce-	2g\	-bam	.	.
.	.	.	.	.	16cc/	.	.	.	.	.	.	.	.	.	.	.
8C/	.	.	.	.	16g/	.	.	.	.	.	.	.	.	.	.	.
.	.	.	16e/Jk	.	16e/JJ	.	.	.	.	.	.	.	.	.	.	.
8C/	.	.	4c/	.	4c/	.	4C/	-bam	4c\	-bam	4e\	-bam	.	.	.	.
8C/J	.	.	.	.	.	.	.	.	.	.	.	.	.	.	.	.
=109	=109	=109	=109	=109	=109	=109	=109	=109	=109	=109	=109	=109	=109	=109	=109	=109
*clefC4	*	*	*	*	*	*	*	*	*	*	*	*	*	*	*	*
8r	.	.	2.r	.	2.r	.	2.r	.	8r	.	2.r	.	8r	.	2.ryy	2.ryy
8G\	.	.	.	.	.	.	.	.	8G/	Per-	.	.	8ee\	Per-	.	.
4A\	.	.	.	.	.	.	.	.	4A/	-fe-	.	.	4ff\	-fe-	.	.
4B-\	.	.	.	.	.	.	.	.	4B-/	-cto	.	.	4gg\	-cto	.	.
!	!	!	!	!	!	!	!	!	!	!	!LO:LB:g=original	!	!	!	!	!
=110	=110	=110	=110	=110	=110	=110	=110	=110	=110	=110	=110	=110	=110	=110	=110	=110
8B-\L	4 2	.	4r	.	4r	.	2.r	.	8B-\	o-	8c\	o-	8gg\	O-	2.ryy	2.ryy
16A\L	.	.	.	.	.	.	.	.	16A/LL	-di-	8c\	-di-	(16ff\LL	-di-	.	.
16G\JJ	.	.	.	.	.	.	.	.	16G/JJ	.	.	.	16ee\JJ)	.	.	.
4A\	6	.	8r	.	8r	.	.	.	4A/	-o	4c\	-o	4ff\	-o	.	.
.	.	.	8c/L	.	8a/L	.	.	.	.	.	.	.	.	.	.	.
4r	.	.	8B-/	.	8g/	.	.	.	4r	.	4r	.	4r	.	.	.
.	.	.	8A/J	.	8f/J	.	.	.	.	.	.	.	.	.	.	.
!LO:LB:g=original	!	!	!	!	!	!	!	!	!	!	!	!	!LO:LB:g=original	!	!	!
=111	=111	=111	=111	=111	=111	=111	=111	=111	=111	=111	=111	=111	=111	=111	=111	=111
8f\L	.	.	2.r	.	2.r	.	2.r	.	(8f\L	o-	4.a\	o-	4r	.	2.ryy	2.ryy
8e\	.	.	.	.	.	.	.	.	8e\J)	.	.	.	.	.	.	.
8d\	.	.	.	.	.	.	.	.	(8d\L	-de-	.	.	8.ff\	o-	.	.
8c\	6	.	.	.	.	.	.	.	8c\J)	.	8a\	-de-	.	.	.	.
.	.	.	.	.	.	.	.	.	.	.	.	.	16ff\	-de-	.	.
8B-\	6	.	.	.	.	.	.	.	(8B-\L	-ram	8d\L	-ram	4ff\	-rom	.	.
8A\J	6	.	.	.	.	.	.	.	8A\J)	.	8c\J	.	.	.	.	.
=112	=112	=112	=112	=112	=112	=112	=112	=112	=112	=112	=112	=112	=112	=112	=112	=112
4A\	6	.	4r	.	4r	.	4r	.	4A/	il-	4c\	il-	4ff\	Il-	2.ryy	2.ryy
8G\L	6	.	8r	.	8r	.	8r	.	4G/	-los	8c\	-los	8ee\	-los	.	.
*clefF4	*	*	*	*	*	*	*	*	*	*	*	*	*	*	*	*
8G\	.	.	8b-\L	.	8b-\	.	8G\	et	.	.	8e\	et	8b-\	et	.	.
8G\	.	.	8b-\	.	8dd\L	.	8G\	i-	4r	.	8e\	i-	8b-\	i-	.	.
8F\J	.	.	8b-\J	.	8dd\J	.	8F\	-ni-	.	.	8f\	-ni-	8b-\	-ni	.	.
!	!	!	!	!	!LO:LB:g=original	!	!LO:LB:g=original	!	!LO:LB:g=original	!	!	!	!	!	!	!
=113	=113	=113	=113	=113	=113	=113	=113	=113	=113	=113	=113	=113	=113	=113	=113	=113
4E\	7	.	8b-\L	.	8dd\L	.	8E\	-mi-	2.r	.	8b-\	-mi-	8dd\	mi-	2.ryy	2.ryy
.	.	.	8g\	.	8cc\	.	8E\	-ci	.	.	8g\	-ci	8cc\	-ci	.	.
4E\	6	.	8g\	.	8b-\	.	8E\	fa-	.	.	8g\	fac-	8b-\	fa-	.	.
.	.	.	8b-\J	.	8gg\J	.	8E\	-cti	.	.	8g\	-ti	8b-\	-cti	.	.
4E\	5	.	8g\L	.	8b-\L	.	4E\	sunt	.	.	4g\	sunt	4b-\	sunt	.	.
.	.	.	8b-\J	.	8gg\J	.	.	.	.	.	.	.	.	.	.	.
!	!	!	!LO:LB:g=original	!	!	!	!	!	!	!	!	!	!	!	!	!
=114	=114	=114	=114	=114	=114	=114	=114	=114	=114	=114	=114	=114	=114	=114	=114	=114
4F\	.	.	4a/	.	16a\LL	.	2.c\	mi-	2.r	.	2f\	mi-	(2a\	Mi-	2.ryy	2.ryy
.	.	.	.	.	16cc\	.	.	.	.	.	.	.	.	.	.	.
.	.	.	.	.	16ff\	.	.	.	.	.	.	.	.	.	.	.
.	.	.	.	.	16aa\JJ	.	.	.	.	.	.	.	.	.	.	.
4c\	4:3	.	4a/	.	8a\L	.	.	.	.	.	.	.	.	.	.	.
.	.	.	.	.	8ff\	.	.	.	.	.	.	.	.	.	.	.
4C/	.	.	4g/	.	8g\	.	.	.	.	.	4e\	.	4g\)	.	.	.
.	.	.	.	.	8ee\J	.	.	.	.	.	.	.	.	.	.	.
=115	=115	=115	=115	=115	=115	=115	=115	=115	=115	=115	=115	=115	=115	=115	=115	=115
!LO:TX:a:t=S&colon;	!	!	!	!	!	!	!	!	!	!	!	!	!	!	!	!
4FF/	.	.	4A/	.	4f/	.	4F\	-hi	4r	.	4c\	-hi	4f/	-hi.	2.ryy	2.ryy
!	!	!	!	!	!	!	!	!	!	!	!LO:LB:g=original	!	!	!	!	!
4r	2:5	.	4r	.	4r	.	4r	.	4f\	Pro-	4r	.	2r	.	.	.
4F\	-6	.	4r	.	4r	.	4r	.	8c\	-ba	4r	.	.	.	.	.
.	.	.	.	.	.	.	.	.	8d-X\	me	.	.	.	.	.	.
=116	=116	=116	=116	=116	=116	=116	=116	=116	=116	=116	=116	=116	=116	=116	=116	=116
!	!	!	!	!	!	!	!LO:TX:a:t=13	!	!	!	!	!	!LO:TX:a:t=13	!	!	!
4F\	n 2	.	4r	.	4r	.	2.r	.	4Bn\	De-	2.r	.	2.r	.	2.ryy	2.ryy
4E\	4 6	.	4r	.	4r	.	.	.	4c\	-us	.	.	.	.	.	.
!	!	!	!	!LO:DY:b:t=p&colon;	!	!LO:DY:t=p&colon;	!	!	!	!	!	!	!	!	!	!
4D-X\	.	.	4a-X/	p	4ff\	p	.	.	4F/	(et)	.	.	.	.	.	.
=117	=117	=117	=117	=117	=117	=117	=117	=117	=117	=117	=117	=117	=117	=117	=117	=117
4C\	6 7	.	4b-/	.	4b-\	.	2.r	.	16G\LL	sci-	2.r	.	2.r	.	2.ryy	2.ryy
.	.	.	.	.	.	.	.	.	16B-\JJ	.	.	.	.	.	.	.
.	.	.	.	.	.	.	.	.	8d-X\	.	.	.	.	.	.	.
4C\	6 4	.	4r	.	8a-X/L	.	.	.	8c\L	-to	.	.	.	.	.	.
.	.	.	.	.	8g/	.	.	.	8B-\J	.	.	.	.	.	.	.
4C\	5	.	4r	.	8f/	.	.	.	8A-X/L	cor	.	.	.	.	.	.
.	.	.	.	.	8e/J	.	.	.	8G/J	.	.	.	.	.	.	.
=118	=118	=118	=118	=118	=118	=118	=118	=118	=118	=118	=118	=118	=118	=118	=118	=118
4C/	-6 2:3	.	4c/	.	8f/L	.	2.r	.	8A/L	me-	2.r	.	2.r	.	2.ryy	2.ryy
.	.	.	.	.	8b-/J	.	.	.	8G/J	.	.	.	.	.	.	.
4FF/	5 -	.	4c/	.	4a-X/	.	.	.	4F/	-um	.	.	.	.	.	.
4r	.	.	4r	.	4r	.	.	.	8A-X/	in-	.	.	.	.	.	.
.	.	.	.	.	.	.	.	.	8A-/	-ter-	.	.	.	.	.	.
!LO:LB:g=original	!	!	!	!	!	!	!	!	!	!	!	!	!	!	!	!
=119	=119	=119	=119	=119	=119	=119	=119	=119	=119	=119	=119	=119	=119	=119	=119	=119
4C-X/	-6	.	4r	.	2ee-X\	.	2.r	.	4e-X\	-ro-	2.r	.	2.r	.	2.ryy	2.ryy
4AA-X/	.	.	4cc\	.	.	.	.	.	8e-\L	.	.	.	.	.	.	.
.	.	.	.	.	.	.	.	.	16d\L	.	.	.	.	.	.	.
!	!	!	!	!	!	!	!	!	!	!	!	!	!	!	!	!
.	.	.	.	.	.	.	.	.	16c\JJ	.	.	.	.	.	.	.
!	!	!	!	!	!	!	!	!	!LO:LB:g=original	!	!	!	!	!	!	!
4E-X/	.	.	4b-\	.	4dd-X\	.	.	.	8d-X\L	-ga	.	.	.	.	.	.
.	.	.	.	.	.	.	.	.	16c\L	.	.	.	.	.	.	.
.	.	.	.	.	.	.	.	.	16B-\JJ	.	.	.	.	.	.	.
=120	=120	=120	=120	=120	=120	=120	=120	=120	=120	=120	=120	=120	=120	=120	=120	=120
4A-X\	.	.	8a-X/L	.	4cc\	.	2.r	.	4c\	me	2.r	.	2.r	.	2.ryy	2.ryy
.	.	.	8e-X/J	.	.	.	.	.	.	.	.	.	.	.	.	.
4C/	-6	.	4e-/	.	8e-X\L	.	.	.	4E-X/	(et)	.	.	.	.	.	.
.	.	.	.	.	8a-X\	.	.	.	.	.	.	.	.	.	.	.
4C/	.	.	4a-X/	.	8cc\	.	.	.	4E-/	cog-	.	.	.	.	.	.
.	.	.	.	.	8ee-X\J	.	.	.	.	.	.	.	.	.	.	.
=121	=121	=121	=121	=121	=121	=121	=121	=121	=121	=121	=121	=121	=121	=121	=121	=121
!	!	!	!	!	!LO:SIC:s=8ee-	!	!	!	!	!	!	!	!	!	!	!
4D-X/	-	.	4f/	.	8ee\L	.	2.r	.	(4F/	-nos-	2.r	.	2.r	.	2.ryy	2.ryy
.	.	.	.	.	8dd-X\J	.	.	.	.	.	.	.	.	.	.	.
8BB-/L	9:8	.	8g/L	.	4dd-\	.	.	.	4d-X\)	.	.	.	.	.	.	.
8GG/J	.	.	8b-/	.	.	.	.	.	.	.	.	.	.	.	.	.
4AA-X/	.	.	8a-X/	.	4cc\	.	.	.	4c\	-ce	.	.	.	.	.	.
.	.	.	8e-X/J	.	.	.	.	.	.	.	.	.	.	.	.	.
!	!	!	!LO:LB:g=original	!	!LO:LB:g=original	!	!	!	!	!	!	!	!	!	!	!
=122	=122	=122	=122	=122	=122	=122	=122	=122	=122	=122	=122	=122	=122	=122	=122	=122
4D-X\	6	.	8f/L	.	2b-\	.	2.r	.	4B-\	Se-	2.r	.	2.r	.	2.ryy	2.ryy
.	.	.	8f/	.	.	.	.	.	.	.	.	.	.	.	.	.
4D-\	.	.	8f/	.	.	.	.	.	8f\L	-mi-	.	.	.	.	.	.
.	.	.	8f/	.	.	.	.	.	8d-X\J	.	.	.	.	.	.	.
4D-\	5	.	8f/	.	8b-\L	.	.	.	8B-\L	-tas	.	.	.	.	.	.
.	.	.	8f/J	.	8a-X\J	.	.	.	8A-X\J	.	.	.	.	.	.	.
=123	=123	=123	=123	=123	=123	=123	=123	=123	=123	=123	=123	=123	=123	=123	=123	=123
4D-X\	-6 4 2	.	4e-X/	.	4g/	.	2.r	.	4G/	me-	2.r	.	2.r	.	2.ryy	2.ryy
!	!	!	!	!	!LO:SIC:s=4a-	!	!	!	!	!	!	!	!	!	!	!
8C\L	.	.	4e-/	.	4a/	.	.	.	4A-X/	-as	.	.	.	.	.	.
8A-X\	.	.	.	.	.	.	.	.	.	.	.	.	.	.	.	.
8F\	.	.	4a-X/	.	4cc/	.	.	.	8r	.	.	.	.	.	.	.
8D-\J	.	.	.	.	.	.	.	.	8c\	(et)	.	.	.	.	.	.
=124	=124	=124	=124	=124	=124	=124	=124	=124	=124	=124	=124	=124	=124	=124	=124	=124
8E-X\L	6 -4	.	8cc\L	.	8aa-X\L	.	2.r	.	4c\	vi-	2.r	.	2.r	.	2.ryy	2.ryy
8E-\	.	.	8cc\	.	8aa-\	.	.	.	.	.	.	.	.	.	.	.
8E-\	5 3	.	8b-\	.	8gg\	.	.	.	4B-\	-de	.	.	.	.	.	.
8E-\	.	.	8b-\	.	8gg\	.	.	.	.	.	.	.	.	.	.	.
8E-\	n	.	8b-\	.	8gg\	.	.	.	8r	.	.	.	.	.	.	.
*	*	*	*	*	*	*	*	*	*	*ij	*	*	*	*	*	*
8E-\J	.	.	8b-\J	.	8gg\J	.	.	.	8B-\	(et)	.	.	.	.	.	.
=125	=125	=125	=125	=125	=125	=125	=125	=125	=125	=125	=125	=125	=125	=125	=125	=125
8F\L	9 4	.	8b-\L	.	8gg\L	.	2.r	.	4B-\	vi-	2.r	.	2.r	.	2.ryy	2.ryy
8F\	8 -3	.	8b-\	.	8gg\	.	.	.	.	.	.	.	.	.	.	.
!	!	!	!	!	!	!	!	!	!	!	!	!	!	!	!	!
8F\	.	.	8a-X\	.	8ff\	.	.	.	4A-X\	-de	.	.	.	.	.	.
8F\	.	.	8a-\	.	8ff\	.	.	.	.	.	.	.	.	.	.	.
!	!	!	!	!	!	!	!	!	!LO:LB:g=original	!	!	!	!	!	!	!
*	*	*	*	*	*	*	*	*	*	*Xij	*	*	*	*	*	*
8F\	.	.	8a-\	.	8ff\	.	.	.	8r	.	.	.	.	.	.	.
8F\J	.	.	8a-\J	.	8ff\J	.	.	.	8f\	Si	.	.	.	.	.	.
!LO:LB:g=original	!	!	!	!	!	!	!	!	!	!	!	!	!	!	!	!
=126	=126	=126	=126	=126	=126	=126	=126	=126	=126	=126	=126	=126	=126	=126	=126	=126
4C\	-6:5 2|:3	.	8a/L	.	8ff\L	.	2.r	.	8f\	vi-	2.r	.	2.r	.	2.ryy	2.ryy
.	.	.	8g/	.	8een\J	.	.	.	8en\	-a	.	.	.	.	.	.
4E\	6	.	8g/	.	4cc\	.	.	.	(8g\L	i-	.	.	.	.	.	.
.	.	.	8g/	.	.	.	.	.	8e\J)	.	.	.	.	.	.	.
4E\	5	.	8c/	.	4gg\	.	.	.	8c\	-ni-	.	.	.	.	.	.
.	.	.	8cc/J	.	.	.	.	.	8B-\	-qui-	.	.	.	.	.	.
=127	=127	=127	=127	=127	=127	=127	=127	=127	=127	=127	=127	=127	=127	=127	=127	=127
4F\	-	.	4cc\	.	4ff\	.	2.r	.	8A-X\L	-ta-	2.r	.	2.r	.	2.ryy	2.ryy
.	.	.	.	.	.	.	.	.	8B-\J	.	.	.	.	.	.	.
8r	.	.	8r	.	8r	.	.	.	2c\	-tis	.	.	.	.	.	.
8AA-X/L	6	.	8f/L	.	8ff\L	.	.	.	.	.	.	.	.	.	.	.
8AA-/	.	.	8f/	.	8cc\	.	.	.	.	.	.	.	.	.	.	.
8AA-/J	.	.	8cc/J	.	16ff\L	.	.	.	.	.	.	.	.	.	.	.
.	.	.	.	.	16aa-X\JJ	.	.	.	.	.	.	.	.	.	.	.
=128	=128	=128	=128	=128	=128	=128	=128	=128	=128	=128	=128	=128	=128	=128	=128	=128
2.BB-/	-7:6:5	.	4cc\	.	4aa-X\	.	2.r	.	(4c\	in	2.r	.	2.r	.	2.ryy	2.ryy
.	.	.	4b-\	.	4gg\	.	.	.	4B-\)	.	.	.	.	.	.	.
.	.	.	4a-X\	.	4ff\	.	.	.	4A-X\	me	.	.	.	.	.	.
=129	=129	=129	=129	=129	=129	=129	=129	=129	=129	=129	=129	=129	=129	=129	=129	=129
!LO:TX:b:i:t=T&colon;	!	!	!LO:TX:t=P:problem=mixed beam	!	!	!	!	!	!	!	!	!	!	!	!	!
8C/L	n	.	8g/L	.	8een\L	.	8r	.	8G/	est	8r	.	8r	.	2.ryy	2.ryy
8D-X/	n	.	8f/	.	8bn\	.	8D-X/	et	8f\	(et)	8g\	et	8b-\	et	.	.
8D-/	6	.	8ff\	.	8b\	.	8D-/	de-	8.f\	de-	8.g\	de-	8.b-\	de-	.	.
8D-/	.	.	8f/	.	8b\	.	8E/	-duc	.	.	.	.	.	.	.	.
!	!	!	!	!	!	!	!	!	!	!	!	!	!	!	!	!
.	.	.	.	.	.	.	.	.	16f\	-duc	16g\	-duc	16b-\	-duc	.	.
!	!	!	!	!	!	!	!	!	!	!	!	!	!LO:LB:g=original	!	!	!
8D-/	.	.	8ff\	.	8b\	.	8D-/	me	8f\	me	8g\	me	8b-\L	me	.	.
8D-/J	.	.	8f/J	.	8b\J	.	8D-/	in	8f\	in	8g\	in	8b-\J	in	.	.
!	!	!	!LO:LB:g=original	!	!	!	!	!	!LO:LB:g=original	!	!	!	!	!	!	!
=130	=130	=130	=130	=130	=130	=130	=130	=130	=130	=130	=130	=130	=130	=130	=130	=130
2.Dn/	.	.	2Bn/	.	4ff\	.	4Dn\	vi-	4f\	vi-	4Bn/	vi-	4ff\	vi-	2.ryy	2.ryy
.	.	.	.	.	4ddn\	.	4D\	-a	4f\	-a	4B/	-a	4dd\	-a	.	.
.	.	.	4f/	.	4bn\	.	4D\	(ae)-	4f\	(ae)-	4d\	(ae)-	4bn\	(ae)-	.	.
!	!	!	!	!	!LO:LB:g=original	!	!	!	!	!	!	!	!	!	!	!
=131	=131	=131	=131	=131	=131	=131	=131	=131	=131	=131	=131	=131	=131	=131	=131	=131
8C/L	.	.	8en/L	.	8cc\L	.	8C/L	-ter-	8e\L	-ter-	4g\	-ter-	8cc\L	-ter-	2.ryy	2.ryy
8GG/J	.	.	8f/J	.	8bn\J	.	8GG/J	.	8d\J	.	.	.	8b-\J	-na	.	.
4CC/	.	.	4e/	.	4cc\	.	4C/	-na	4c\	-na	4g\	-na	4cc\	.	.	.
4r	.	.	4r	.	4r	.	4r	.	4r	.	4r	.	4r	.	.	.
!	!	!	!	!	!	!	!LO:LB:g=original	!	!	!	!	!	!	!	!	!
=132	=132	=132	=132	=132	=132	=132	=132	=132	=132	=132	=132	=132	=132	=132	=132	=132
!LO:TX:a:t=S&colon;	!	!	!LO:TX:a:t=6	!	!LO:TX:a:t=6	!	!	!	!	!	!	!	!	!	!	!
4C\	.	.	2.r	.	2.r	.	2.r	.	2.r	.	4.g\	Glo-	4.b-\	Glo-	2.ryy	2.ryy
4E\	.	.	.	.	.	.	.	.	.	.	.	.	.	.	.	.
.	.	.	.	.	.	.	.	.	.	.	8g\	-ri-	8b-\	-ri-	.	.
4C\	.	.	.	.	.	.	.	.	.	.	4g\	-a	4b-\	-a	.	.
=133	=133	=133	=133	=133	=133	=133	=133	=133	=133	=133	=133	=133	=133	=133	=133	=133
4F\	.	.	2.r	.	2.r	.	2.r	.	2.r	.	8f\L	Pa-	(8a\L	Pa-	2.ryy	2.ryy
.	.	.	.	.	.	.	.	.	.	.	8g\J	.	8b-\J)	.	.	.
4r	.	.	.	.	.	.	.	.	.	.	4a\	-tri	4cc\	-tri	.	.
4F\	5:6 3:4	.	.	.	.	.	.	.	.	.	8a\L	et	(8ff\L	et	.	.
.	.	.	.	.	.	.	.	.	.	.	8b-\J	.	8dd\J)	.	.	.
!	!	!	!	!	!	!	!	!	!	!	!LO:LB:g=original	!	!	!	!	!
=134	=134	=134	=134	=134	=134	=134	=134	=134	=134	=134	=134	=134	=134	=134	=134	=134
8E\L	6_ 4_	.	2.r	.	2.r	.	2.r	.	2.r	.	2a\	Fi-	2cc\	Fi-	2.ryy	2.ryy
8E\	.	.	.	.	.	.	.	.	.	.	.	.	.	.	.	.
8E\	.	.	.	.	.	.	.	.	.	.	.	.	.	.	.	.
8E\	.	.	.	.	.	.	.	.	.	.	.	.	.	.	.	.
8E\	5	.	.	.	.	.	.	.	.	.	4g\	-li-	4b-\	-li-	.	.
8E\J	.	.	.	.	.	.	.	.	.	.	.	.	.	.	.	.
!LO:LB:g=original	!	!	!	!	!	!	!	!	!	!	!	!	!	!	!	!
=135	=135	=135	=135	=135	=135	=135	=135	=135	=135	=135	=135	=135	=135	=135	=135	=135
4F\	.	.	2.r	.	2.r	.	4r	.	4r	.	4f\	-o	4a\	-o	2.ryy	2.ryy
8B-\L	.	.	.	.	.	.	4D\	et	4d\	(et)	4r	.	4r	.	.	.
16A\L	.	.	.	.	.	.	.	.	.	.	.	.	.	.	.	.
16G\JJ	.	.	.	.	.	.	.	.	.	.	.	.	.	.	.	.
8F\L	.	.	.	.	.	.	4D\	Spi-	4d\	Spi-	4r	.	4r	.	.	.
8E\J	.	.	.	.	.	.	.	.	.	.	.	.	.	.	.	.
=136	=136	=136	=136	=136	=136	=136	=136	=136	=136	=136	=136	=136	=136	=136	=136	=136
!	!	!	!	!	!	!	!	!	!	!	!	!	!LO:TX:a:t=2	!	!	!
8D\L	.	.	2.r	.	2.r	.	4D\	-ri-	4.f\	-ri-	2.r	.	2.r	.	2.ryy	2.ryy
8D\	.	.	.	.	.	.	.	.	.	.	.	.	.	.	.	.
8D\	6	.	.	.	.	.	4.B-\	-tu-	.	.	.	.	.	.	.	.
8D\	5	.	.	.	.	.	.	.	8e\	-tu-	.	.	.	.	.	.
8D\	.	.	.	.	.	.	.	.	4d\	-i	.	.	.	.	.	.
8D\J	.	.	.	.	.	.	8A\	-i	.	.	.	.	.	.	.	.
=137	=137	=137	=137	=137	=137	=137	=137	=137	=137	=137	=137	=137	=137	=137	=137	=137
4BBn/	6|	.	2.r	.	2.r	.	4G\	San-	4d\	San-	2.r	.	2.r	.	2.ryy	2.ryy
4AA/	.	.	.	.	.	.	4F\	-cto	4c#X\	-cto	.	.	.	.	.	.
4r	.	.	.	.	.	.	4r	.	4r	.	.	.	.	.	.	.
=138	=138	=138	=138	=138	=138	=138	=138	=138	=138	=138	=138	=138	=138	=138	=138	=138
!LO:TX:a:t=T&colon;	!	!	!	!	!	!	!	!	!	!	!	!	!	!	!	!
!	!	!	!	!LO:DY:t=f&colon;	!	!	!	!	!	!	!	!	!	!	!	!
8F\L	.	.	8A/	f	8.cc\L	.	8.F\	Si-	8.f\	Si-	8a\	Si-	8.cc\	Si-	2.ryy	2.ryy
8F\	.	.	4A/	.	.	.	.	.	.	.	8a\	-cut	.	.	.	.
.	.	.	.	.	16a\Jk	.	16F\	-cit	16f\	-cut	.	.	16cc\	-cut	.	.
8F\	.	.	.	.	8f\L	.	8F\	e-	8f\	e-	8a\	e-	8cc\	e-	.	.
!	!	!	!	!	!	!	!	!	!	!	!	!	!	!	!	!
8F\	8 6	.	8dd\L	.	8ff\J	.	8F\	-rat	8d\	-rat	8f\	-rat	8ff\	-rat	.	.
!	!	!	!	!	!	!	!	!	!	!	!	!	!LO:LB:g=original	!	!	!
!	!	!	!	!	!	!	!	!	!LO:LB:g=original	!	!	!	!	!	!	!
8F\	7 5	.	8cc\	.	8ee\L	.	8F\	in	8c\	in	8f\	in	8ee\	in	.	.
8F\J	6_ 4_	.	8b-\J	.	8dd\J	.	8F\	prin-	8B-\	Prin-	8f\	prin-	8dd\	Prin-	.	.
=139	=139	=139	=139	=139	=139	=139	=139	=139	=139	=139	=139	=139	=139	=139	=139	=139
8F\L	.	.	8b-\L	.	4.cc\	.	8F\	-ci-	8B-\	-ci-	8f\	-ci-	8dd\	-ci-	2.ryy	2.ryy
8F\	5	.	8a\	.	.	.	8F\	-pi-	8A\	-pi-	8f\	-pi-	8cc\	-pi-	.	.
8F\	.	.	8a\	.	.	.	8F\	-o	8A\	-o	8f\	-o	8cc\	-o	.	.
8F\	.	.	8cc\	.	8aa\	.	8F\	et	8c\	(et)	8a\	et	8cc\	et	.	.
8F\	.	.	8b-\	.	8gg\L	.	8F\	nunc	8c\	nunc	8g\	nunc	8b-\	nunc	.	.
8F\J	.	.	8a\J	.	8ff\J	.	8F\	et	8c\	(et)	8f\	et	8a\	et	.	.
=140	=140	=140	=140	=140	=140	=140	=140	=140	=140	=140	=140	=140	=140	=140	=140	=140
8C\L	4	.	8a/L	.	8ff\L	.	8C/	Sem-	8c\	Sem-	8f\	Sem-	8a\	Sem-	2.ryy	2.ryy
!	!	!	!	!	!	!	!	!	!	!	!	!	!	!	!	!
8C\	3	.	8g/J	.	16ee\L	.	8C/	-per	8c\	-per	8e\	-per	8g\	-per	.	.
.	.	.	.	.	16ff\JJ	.	.	.	.	.	.	.	.	.	.	.
!	!	!	!	!	!	!	!	!	!	!	!LO:LB:g=original	!	!	!	!	!
!	!	!	!	!	!	!	!LO:LB:g=original	!	!	!	!	!	!	!	!	!
8E\	6	.	8c/L	.	16gg\LL	.	8E\	et	8B-\	(et)	8e\	et	8b-\	et	.	.
.	.	.	.	.	16ff\	.	.	.	.	.	.	.	.	.	.	.
8E\	.	.	8g/	.	16ee\	.	8E\	in	8B-\	in	8e\	in	8dd\	in	.	.
.	.	.	.	.	16dd\JJ	.	.	.	.	.	.	.	.	.	.	.
8E\	5	.	8g/	.	8cc\L	.	8E\	s(ae)-	8c\	S(ae)-	8e\	S(ae)-	8cc\	S(ae)-	.	.
8E\J	.	.	8g/J	.	8b-\J	.	8E\	-cu-	8c\	-cu-	8e\	-cu-	8b-\	-cu-	.	.
=141	=141	=141	=141	=141	=141	=141	=141	=141	=141	=141	=141	=141	=141	=141	=141	=141
4F\	.	.	4f/	.	4a\	.	4F\	-la	4c\	-la	4f\	-la	4a\	-la	2.ryy	2.ryy
4E\	6	.	8r	.	16gg\LL	.	4E\	s(ae)-	4c\	S(ae)-	8g\	s(ae)-	8b-\	S(ae)-	.	.
.	.	.	.	.	16ff\	.	.	.	.	.	.	.	.	.	.	.
.	.	.	4g/	.	16ee\	.	.	.	.	.	8g\	-cu-	8dd\	-cu-	.	.
.	.	.	.	.	16dd\JJ	.	.	.	.	.	.	.	.	.	.	.
4E\	5	.	.	.	8cc\L	.	4E\	-cu-	4c\	-cu-	8g\	-lo-	8cc\	-lo-	.	.
.	.	.	8g/	.	8b-\J	.	.	.	.	.	8g\	-rum	8b-\	-rum	.	.
!LO:LB:g=original	!	!	!	!	!	!	!	!	!	!	!	!	!	!	!	!
=142	=142	=142	=142	=142	=142	=142	=142	=142	=142	=142	=142	=142	=142	=142	=142	=142
!	!	!	!	!	!LO:TX:a:t=t&colon;	!	!	!	!	!	!	!	!	!	!	!
8F\L	.	.	4at/	.	4a\	.	(4F\	-lo-	2c\	-lo-	2.f\	a-	(4a\	a-	2.ryy	2.ryy
8F\	.	.	.	.	.	.	.	.	.	.	.	.	.	.	.	.
!	!	!	!	!	!LO:TX:a:t=t&colon;	!	!	!	!	!	!	!	!	!	!	!
8G\	.	.	4b-T/	.	4b-\	.	4G\)	.	.	.	.	.	4b-\	.	.	.
8G\	.	.	.	.	.	.	.	.	.	.	.	.	.	.	.	.
*	*	*	*custos:dd	*	*	*	*	*	*	*	*	*	*	*	*	*
!	!	!	!	!	!LO:TX:a:t=t&colon;	!	!	!	!	!	!	!	!	!	!	!
8A\	6	.	4ccT/	.	4cc\	.	4A\	-rum	4F/	-rum	.	.	4cc\)	.	.	.
8A\J	.	.	.	.	.	.	.	.	.	.	.	.	.	.	.	.
!	!	!	!	!	!	!	!	!	!	!	!	!	!LO:LB:g=original	!	!	!
!	!	!	!LO:LB:g=original	!	!	!	!	!	!LO:LB:g=original	!	!	!	!	!	!	!
=143	=143	=143	=143	=143	=143	=143	=143	=143	=143	=143	=143	=143	=143	=143	=143	=143
4B-\	5:6	.	8dd\L	.	8dd\L	.	4B-\	a-	4r	.	8f\L	.	8dd\L	.	2.ryy	2.ryy
.	.	.	16cc\L	.	8gg\J	.	.	.	.	.	8g\J	.	16cc\L	.	.	.
.	.	.	16b-\JJ	.	.	.	.	.	.	.	.	.	16b-\JJ	.	.	.
4c\	4	.	4a/	.	4ff\	.	4c\	.	2c\	a-	4f\	.	4a\	.	.	.
4C/	3	.	4g/	.	4ee\	.	4C/	.	.	.	4e\	.	4g\	.	.	.
!	!	!	!	!	!LO:LB:g=original	!	!	!	!	!	!	!	!	!	!	!
=144	=144	=144	=144	=144	=144	=144	=144	=144	=144	=144	=144	=144	=144	=144	=144	=144
4F\	.	.	4a/	.	4ff\	.	4F\	-men	4A\	-men	4c\	-men	4f/	-men	2.ryy	2.ryy
4r	.	.	4r	.	4r	.	4r	.	16F\LL	A-	2a\	.	2cc\	a-	.	.
.	.	.	.	.	.	.	.	.	16G\	.	.	.	.	.	.	.
.	.	.	.	.	.	.	.	.	16A\	.	.	.	.	.	.	.
.	.	.	.	.	.	.	.	.	16B-\JJ	.	.	.	.	.	.	.
4r	.	.	4r	.	4r	.	4r	.	16c\LL	.	.	.	.	.	.	.
.	.	.	.	.	.	.	.	.	16d\	.	.	.	.	.	.	.
.	.	.	.	.	.	.	.	.	16e-X\	.	.	.	.	.	.	.
.	.	.	.	.	.	.	.	.	16d\JJ	.	.	.	.	.	.	.
=145	=145	=145	=145||:	=145	=145	=145	=145	=145	=145	=145	=145	=145	=145	=145	=145	=145
8r	.	.	8r	.	8r	.	8r	.	8d\L	.	8b-\L	a-	(8dd\L	.	2.ryy	2.ryy
8B-\	6	.	8b-\	.	8gg\	.	8B-\	a-	8B-\J	.	8g\J	.	8gg\J)	.	.	.
4c\	4	.	4a\	.	4ff\	.	4c\	.	4A/	.	2c\	-men	4ff\	.	.	.
4C/	3	.	4g\	.	4ee\	.	4C/	-men	4G/	-men	.	.	4ee\	-men	.	.
=146	=146	=146	=146:||	=146	=146	=146	=146	=146	=146	=146	=146	=146	=146	=146	=146	=146
!	!	!	!	!	!	!	!	!	!	!	!	!	!	!	!	!
8r	.	.	8ryy	.	8r	.	8r	.	8r	.	8r	.	8r	.	2.ryy	2.ryy
*	*	*	*	*	*	*	*	*	*	*ij	*	*	*	*ij	*	*
8B-\	6	.	8b-\yy	.	16bb-\LL	.	8B-\	a-	8d\	a-	8b-\	a-	8gg\	a-	.	.
.	.	.	.	.	16gg\JJ	.	.	.	.	.	.	.	.	.	.	.
4c\	4	.	4a\yy	.	4ff\	.	4c\	.	4c\	.	2g\	-men	4ff\	.	.	.
4C/	3	.	4g\yy	.	4ee\	.	4C/	-men	4e\	-men	.	.	4ee\	-men	.	.
=147	=147	=147	=147	=147	=147	=147	=147	=147	=147	=147	=147	=147	=147	=147	=147	=147
4D/	.	.	4f/	.	4f/	.	4D/	a-	16f\LL	a-	4f\	.	4r	.	2.ryy	2.ryy
.	.	.	.	.	.	.	.	.	16c\	.	.	.	.	.	.	.
.	.	.	.	.	.	.	.	.	16d\	.	.	.	.	.	.	.
.	.	.	.	.	.	.	.	.	16B-\JJ	.	.	.	.	.	.	.
4r	.	.	4r	.	4r	.	4r	.	16c\LL	.	4r	.	4r	.	.	.
.	.	.	.	.	.	.	.	.	16A\	.	.	.	.	.	.	.
.	.	.	.	.	.	.	.	.	16B-\	.	.	.	.	.	.	.
.	.	.	.	.	.	.	.	.	16G\JJ	.	.	.	.	.	.	.
4C/	4:3	.	8a/L	.	8ff\L	.	4C/	-men	8A/L	.	8f\L	a-	4cc\	a-	.	.
.	.	.	8g/J	.	8ee\J	.	.	.	8G/J	.	8e\J	.	.	.	.	.
=148	=148	=148	=148	=148	=148	=148	=148	=148	=148	=148	=148	=148	=148	=148	=148	=148
4FF/	.	.	4a/	.	4f\ 4a 4ff	.	4FF/	.	4A/	-men	2f\	-men	2cc\	-men	2.ryy	2.ryy
4r	.	.	4r	.	4r	.	4r	.	2r	.	.	.	.	.	.	.
*	*	*	*	*	*	*	*	*	*	*ij	*	*	*	*Xij	*	*
4r	.	.	4r	.	4r	.	4r	.	.	.	4r	.	4r	.	.	.
==	==	==	==	==	==	==	==	==	==	==	==	==	==	==	==	==
*-	*-	*-	*-	*-	*-	*-	*-	*-	*-	*-	*-	*-	*-	*-	*-	*-
!!!system-decoration: [(s1,s2)][(s3,s4,s5,s6)][(s7,s8)]s9
!!!ENC: Anastazja Marusiak
!!!END: 2020-08-20
!!!ENC: Natalia Wrzos
!!!END: 2022-02-25
